; generated by Slic3r 1.3.0 on 2020-04-03 at 16:28:28

; external perimeters extrusion width = 0.44mm (2.38mm^3/s)
; perimeters extrusion width = 0.56mm (3.10mm^3/s)
; infill extrusion width = 0.50mm (4.57mm^3/s)
; solid infill extrusion width = 0.56mm (5.17mm^3/s)
; top infill extrusion width = 0.56mm (5.17mm^3/s)

M107
; -- TypeA START GCODE --
G21        ;metric values
G90        ;absolute positioning
G28     ;move to endstops
G29		;allows for auto-levelling
G1 Z15.0 F12000 ;move the platform down 15mm
G1 X150 Y5 F12000 ;center
M140 S50;Prep Heat Bed
M109 S210 ;Heat hotend to temp
M190 S50 ;Heat Bed to temp
G1 X150 Y5 Z0.3 ;move the platform to purge extrusion
G92 E0 ;zero the extruded length
G1 F200 X250 E30 ;extrude 30mm of feed stock
G92 E0 ;zero the extruded length again
G1 X150 Y150  Z25 F12000 ;recenter and begin
G1 F12000

; Filament gcode

G21 ; set units to millimeters
G90 ; use absolute coordinates
M82 ; use absolute distances for extrusion
G92 E0
G1 Z0.400 F6000.000
; LAYER: 0 
; LAYERZ: 0.4
G1 E-0.50000 F2400.00000
G92 E0
G1 X157.295 Y128.544 F6000.000
G1 E0.50000 F2400.00000
G1 F900
G1 X160.118 Y129.150 E0.94653
G1 X164.806 Y131.244 E1.74065
G1 X168.956 Y134.267 E2.53476
G1 X172.387 Y138.087 E3.32889
G1 X174.949 Y142.537 E4.12301
G1 X176.519 Y147.367 E4.90846
G1 X177.061 Y152.471 E5.70221
G1 X176.519 Y157.632 E6.50488
G1 X174.949 Y162.463 E7.29044
G1 X172.387 Y166.913 E8.08455
G1 X168.956 Y170.733 E8.87868
G1 X164.806 Y173.756 E9.67279
G1 X160.118 Y175.850 E10.46691
G1 X157.295 Y176.456 E10.91344
G1 X157.061 Y176.745 E10.97095
G1 X157.061 Y178.232 E11.20099
G1 X156.732 Y178.561 E11.27285
G1 X146.268 Y178.561 E12.89130
G1 X145.939 Y178.232 E12.96316
G1 X145.939 Y176.320 E13.25894
G1 X145.705 Y176.031 E13.31645
G1 X144.882 Y175.850 E13.44675
G1 X140.245 Y173.785 E14.23184
G1 X136.044 Y170.733 E15.03499
G1 X132.647 Y166.960 E15.82007
G1 X130.075 Y162.517 E16.61418
G1 X128.482 Y157.635 E17.40830
G1 X127.939 Y152.529 E18.20242
G1 X128.482 Y147.365 E19.00558
G1 X130.075 Y142.483 E19.79970
G1 X132.647 Y138.040 E20.59381
G1 X136.044 Y134.267 E21.37889
G1 X140.194 Y131.244 E22.17301
G1 X144.882 Y129.150 E22.96713
G1 X145.705 Y128.969 E23.09743
G1 X145.939 Y128.680 E23.15494
G1 X145.939 Y126.768 E23.45072
G1 X146.268 Y126.439 E23.52258
G1 X156.732 Y126.439 E25.14103
G1 X157.061 Y126.768 E25.21289
G1 X157.061 Y128.255 E25.44293
G1 X157.257 Y128.497 E25.49116
G1 E24.99116 F2400.00000
G92 E0
G1 X156.100 Y175.728 F6000.000
G1 E0.50000 F2400.00000
G1 F540
G1 X156.100 Y177.600 E0.70681
G1 X146.900 Y177.600 E1.72297
G1 X146.900 Y176.400 E1.85551
G1 X148.188 Y176.400 E1.99775
G1 X148.273 Y175.594 E2.08724
G1 X145.208 Y174.943 E2.43330
G1 X140.701 Y172.936 E2.97819
G1 X136.710 Y170.037 E3.52307
G1 X133.409 Y166.370 E4.06797
G1 X130.942 Y162.098 E4.61285
G1 X129.418 Y157.406 E5.15774
G1 X128.902 Y152.500 E5.70263
G1 X129.418 Y147.594 E6.24752
G1 X130.942 Y142.902 E6.79241
G1 X133.409 Y138.630 E7.33729
G1 X136.710 Y134.963 E7.88219
G1 X140.701 Y132.064 E8.42707
G1 X145.208 Y130.057 E8.97197
G1 X148.273 Y129.406 E9.31802
G1 X148.188 Y128.600 E9.40751
G1 X146.900 Y128.600 E9.54975
G1 X146.900 Y127.400 E9.68230
G1 X156.100 Y127.400 E10.69845
G1 X156.100 Y129.272 E10.90526
G1 X159.792 Y130.057 E11.32217
G1 X164.299 Y132.064 E11.86706
G1 X168.290 Y134.963 E12.41195
G1 X171.591 Y138.630 E12.95684
G1 X174.058 Y142.902 E13.50173
G1 X175.582 Y147.594 E14.04662
G1 X176.098 Y152.500 E14.59151
G1 X175.582 Y157.406 E15.13640
G1 X174.058 Y162.098 E15.68128
G1 X171.591 Y166.370 E16.22617
G1 X168.290 Y170.037 E16.77107
G1 X164.299 Y172.936 E17.31595
G1 X159.792 Y174.943 E17.86084
G1 X156.159 Y175.715 E18.27112
G1 X155.702 Y175.771 F6000.000
G1 X155.386 Y175.394 F6000.000
G1 F540
G1 X155.386 Y176.886 E18.43591
G1 X148.855 Y176.886 E19.15726
G1 X149.025 Y175.269 E19.33686
G1 X150.083 Y175.494 E19.45638
G1 X154.917 Y175.494 E19.99025
G1 X155.327 Y175.406 E20.03659
G1 E19.53659 F2400.00000
G92 E0
G1 X155.386 Y129.606 F6000.000
G1 E0.50000 F2400.00000
G1 F540
G1 X154.917 Y129.506 E0.55297
G1 X150.083 Y129.506 E1.08684
G1 X149.025 Y129.731 E1.20635
G1 X148.855 Y128.114 E1.38596
G1 X155.386 Y128.114 E2.10731
G1 X155.386 Y129.546 E2.26547
G1 X155.237 Y130.305 F6000.000
G1 F540
G1 X159.423 Y131.194 E2.73807
G1 X163.701 Y133.099 E3.25535
G1 X167.490 Y135.852 E3.77263
G1 X170.624 Y139.332 E4.28992
G1 X172.965 Y143.388 E4.80720
G1 X174.413 Y147.842 E5.32448
G1 X174.902 Y152.500 E5.84176
G1 X174.413 Y157.158 E6.35904
G1 X172.965 Y161.612 E6.87632
G1 X170.624 Y165.668 E7.39361
G1 X167.490 Y169.148 E7.91089
G1 X163.701 Y171.901 E8.42817
G1 X159.423 Y173.806 E8.94545
G1 X154.842 Y174.779 E9.46274
G1 X150.158 Y174.779 E9.98002
G1 X145.577 Y173.806 E10.49730
G1 X141.299 Y171.901 E11.01458
G1 X137.510 Y169.148 E11.53187
G1 X134.376 Y165.668 E12.04915
G1 X132.035 Y161.612 E12.56643
G1 X130.587 Y157.158 E13.08371
G1 X130.098 Y152.500 E13.60099
G1 X130.587 Y147.842 E14.11828
G1 X132.035 Y143.388 E14.63560
G1 X134.408 Y139.297 E15.15804
G1 X137.510 Y135.852 E15.67001
G1 X141.299 Y133.099 E16.18729
G1 X145.577 Y131.194 E16.70457
G1 X150.158 Y130.220 E17.22185
G1 X154.842 Y130.220 E17.73914
G1 X155.179 Y130.292 E17.77719
G1 X155.485 Y129.991 F6000.000
G1 X155.743 Y129.804 F6000.000
G1 F360
G1 X159.607 Y130.626 E18.01495
G1 X164.000 Y132.582 E18.30432
G1 X167.890 Y135.408 E18.59368
G1 X171.091 Y138.962 E18.88155
G1 X173.519 Y143.169 E19.17387
G1 X174.997 Y147.718 E19.46174
G1 X175.499 Y152.500 E19.75110
G1 X174.997 Y157.282 E20.04047
G1 X173.519 Y161.831 E20.32834
G1 X171.091 Y166.038 E20.62065
G1 X167.890 Y169.592 E20.90852
G1 X164.000 Y172.418 E21.19789
G1 X159.607 Y174.374 E21.48725
G1 X155.743 Y175.196 E21.72502
G1 X155.029 Y176.190 F6000.000
G1 F360
G1 X150.046 Y176.190 E22.18140
G1 X149.635 Y176.150 E22.21921
G1 F360
G1 X149.295 Y176.115 E22.25430
G1 X148.484 Y177.000 F6000.000
G1 F360
G1 X147.257 Y177.000 E22.33019
G1 X148.686 Y175.074 F6000.000
G1 F360
G1 X145.393 Y174.374 E22.53283
G1 X141.000 Y172.418 E22.82220
G1 X137.110 Y169.592 E23.11157
G1 X133.893 Y166.019 E23.40094
G1 X131.481 Y161.831 E23.69178
G1 X130.003 Y157.282 E23.97965
G1 X129.501 Y152.500 E24.26901
G1 X130.003 Y147.718 E24.55838
G1 X131.481 Y143.168 E24.84630
G1 X133.942 Y138.926 E25.14142
G1 X137.110 Y135.408 E25.42637
G1 X141.000 Y132.582 E25.71574
G1 X145.393 Y130.626 E26.00511
G1 X148.686 Y129.926 E26.20775
G1 X149.295 Y128.885 F6000.000
G1 F360
G1 X149.635 Y128.850 E26.24284
G1 F360
G1 X150.046 Y128.810 E26.28065
G1 X155.029 Y128.810 E26.73703
G1 E26.23703 F2400.00000
G92 E0
G1 X148.484 Y128.000 F6000.000
G1 E0.50000 F2400.00000
G1 F360
G1 X147.257 Y128.000 E0.57589
M106 S255
G1 Z0.600 F6000.000
; LAYER: 1 
; LAYERZ: 0.6
G1 E0.07589 F2400.00000
G92 E0
G1 X155.295 Y130.034 F6000.000
G1 E0.50000 F2400.00000
G1 F1589.55
G1 X159.509 Y130.929 E0.67226
G1 X163.840 Y132.858 E0.86185
G1 X167.676 Y135.645 E1.05145
G1 X170.849 Y139.169 E1.24104
G1 X173.220 Y143.275 E1.43064
G1 X174.685 Y147.784 E1.62023
G1 X175.175 Y152.442 E1.80749
G1 X174.685 Y157.215 E1.99934
G1 X173.220 Y161.725 E2.18897
G1 X170.849 Y165.831 E2.37856
G1 X167.676 Y169.355 E2.56816
G1 X163.840 Y172.142 E2.75776
G1 X159.509 Y174.071 E2.94735
G1 X154.871 Y175.057 E3.13694
G1 X150.129 Y175.057 E3.32654
G1 X145.491 Y174.071 E3.51614
G1 X141.160 Y172.142 E3.70573
G1 X137.324 Y169.355 E3.89533
G1 X134.151 Y165.831 E4.08492
G1 X131.780 Y161.725 E4.27452
G1 X130.315 Y157.216 E4.46411
G1 X129.819 Y152.500 E4.65371
G1 X130.315 Y147.784 E4.84330
G1 X131.780 Y143.275 E5.03290
G1 X134.151 Y139.169 E5.22249
G1 X137.324 Y135.645 E5.41209
G1 X141.160 Y132.858 E5.60168
G1 X145.491 Y130.929 E5.79128
G1 X150.129 Y129.943 E5.98087
G1 X154.871 Y129.943 E6.17047
G1 X155.236 Y130.021 E6.18541
G1 X155.200 Y130.481 F6000.000
G1 F1800
G1 X159.367 Y131.366 E6.31622
G1 X163.611 Y133.256 E6.45886
G1 X167.369 Y135.986 E6.60151
G1 X170.477 Y139.439 E6.74415
G1 X172.800 Y143.462 E6.88680
G1 X174.236 Y147.880 E7.02944
G1 X174.715 Y152.443 E7.17031
G1 X174.236 Y157.120 E7.31468
G1 X172.800 Y161.538 E7.45734
G1 X170.477 Y165.561 E7.59998
G1 X167.369 Y169.014 E7.74263
G1 X163.611 Y171.744 E7.88527
G1 X159.367 Y173.634 E8.02792
G1 X154.823 Y174.599 E8.17056
G1 X150.177 Y174.599 E8.31321
G1 X145.633 Y173.634 E8.45585
G1 X141.389 Y171.744 E8.59850
G1 X137.631 Y169.014 E8.74114
G1 X134.523 Y165.561 E8.88379
G1 X132.200 Y161.538 E9.02643
G1 X130.764 Y157.120 E9.16908
G1 X130.279 Y152.500 E9.31172
G1 X130.764 Y147.880 E9.45437
G1 X132.200 Y143.462 E9.59701
G1 X134.523 Y139.439 E9.73966
G1 X137.631 Y135.986 E9.88230
G1 X141.389 Y133.256 E10.02495
G1 X145.633 Y131.366 E10.16760
G1 X150.177 Y130.401 E10.31024
G1 X154.823 Y130.401 E10.45289
G1 X155.141 Y130.468 E10.46288
G1 X155.448 Y130.167 F6000.000
G1 X155.823 Y129.497 F6000.000
G1 F1589.55
G1 X159.706 Y130.322 E10.62162
G1 X164.160 Y132.305 E10.81655
G1 X168.104 Y135.170 E11.01148
G1 X171.366 Y138.793 E11.20642
G1 X173.803 Y143.015 E11.40135
G1 X175.310 Y147.652 E11.59628
G1 X175.819 Y152.500 E11.79121
G1 X175.310 Y157.348 E11.98614
G1 X173.803 Y161.985 E12.18107
G1 X171.366 Y166.207 E12.37600
G1 X168.104 Y169.830 E12.57094
G1 X164.160 Y172.695 E12.76587
G1 X159.706 Y174.678 E12.96080
G1 X155.823 Y175.503 E13.11954
G1 X155.823 Y177.323 E13.19230
G1 X147.177 Y177.323 E13.53801
G1 X147.177 Y176.677 E13.56383
G1 X148.437 Y176.677 E13.61423
G1 X148.574 Y175.375 E13.66657
G1 X145.294 Y174.678 E13.80066
G1 X140.840 Y172.695 E13.99560
G1 X136.896 Y169.830 E14.19053
G1 X133.634 Y166.207 E14.38546
G1 X131.197 Y161.985 E14.58039
G1 X129.690 Y157.348 E14.77532
G1 X129.181 Y152.500 E14.97025
G1 X129.690 Y147.652 E15.16519
G1 X131.197 Y143.015 E15.36012
G1 X133.634 Y138.793 E15.55505
G1 X136.896 Y135.170 E15.74998
G1 X140.840 Y132.305 E15.94491
G1 X145.294 Y130.322 E16.13984
G1 X148.574 Y129.625 E16.27394
G1 X148.437 Y128.323 E16.32628
G1 X147.177 Y128.323 E16.37667
G1 X147.177 Y127.677 E16.40250
G1 X155.823 Y127.677 E16.74821
G1 X155.823 Y129.437 E16.81857
G1 X156.280 Y129.127 F6000.000
G1 F1800
G1 X159.848 Y129.885 E16.93058
G1 X164.389 Y131.907 E17.08323
G1 X168.411 Y134.829 E17.23587
G1 X171.737 Y138.523 E17.38851
G1 X174.223 Y142.828 E17.54116
G1 X175.759 Y147.556 E17.69380
G1 X176.279 Y152.500 E17.84644
G1 X175.759 Y157.444 E17.99909
G1 X174.223 Y162.172 E18.15173
G1 X171.737 Y166.477 E18.30437
G1 X168.411 Y170.171 E18.45702
G1 X164.389 Y173.093 E18.60966
G1 X159.848 Y175.115 E18.76231
G1 X156.280 Y175.873 E18.87431
G1 X156.280 Y177.780 E18.93286
G1 X146.720 Y177.780 E19.22641
G1 X146.720 Y176.220 E19.27431
G1 X148.026 Y176.220 E19.31441
G1 X148.077 Y175.737 E19.32933
G1 X145.152 Y175.115 E19.42114
G1 X140.611 Y173.093 E19.57378
G1 X136.589 Y170.171 E19.72643
G1 X133.263 Y166.477 E19.87907
G1 X130.777 Y162.172 E20.03172
G1 X129.241 Y157.444 E20.18436
G1 X128.721 Y152.500 E20.33700
G1 X129.241 Y147.556 E20.48965
G1 X130.777 Y142.828 E20.64229
G1 X133.263 Y138.523 E20.79493
G1 X136.589 Y134.829 E20.94758
G1 X140.611 Y131.907 E21.10022
G1 X145.152 Y129.885 E21.25286
G1 X148.077 Y129.263 E21.34467
G1 X148.026 Y128.780 E21.35960
G1 X146.720 Y128.780 E21.39969
G1 X146.720 Y127.220 E21.44760
G1 X156.280 Y127.220 E21.74115
G1 X156.280 Y129.067 E21.79785
G1 X156.405 Y129.507 F6000.000
G1 X155.564 Y129.766 F6000.000
G1 F1059.7
G1 X159.607 Y130.626 E21.82181
G1 X164.000 Y132.582 E21.84969
G1 X167.890 Y135.408 E21.87756
G1 X171.103 Y138.976 E21.90541
G1 X173.511 Y143.145 E21.93332
G1 X174.995 Y147.712 E21.96116
G1 X175.494 Y152.500 E21.98906
G1 X174.996 Y157.287 E22.01697
G1 X173.511 Y161.855 E22.04481
G1 X171.103 Y166.024 E22.07272
G1 X167.890 Y169.592 E22.10057
G1 X164.000 Y172.418 E22.12844
G1 X159.607 Y174.374 E22.15632
G1 X155.564 Y175.234 E22.18028
G1 X155.155 Y175.591 F6000.000
G1 F2649.24
G1 X155.045 Y175.482 E22.18706
G1 X154.870 Y175.519 E22.19487
G1 X154.284 Y175.519 E22.22050
G1 X155.361 Y176.596 E22.28703
G1 X155.361 Y176.861 E22.29860
G1 X154.827 Y176.861 E22.32192
G1 X153.485 Y175.519 E22.40481
G1 X152.686 Y175.519 E22.43969
G1 X154.028 Y176.861 E22.52258
G1 X153.229 Y176.861 E22.55747
G1 X151.887 Y175.519 E22.64036
G1 X151.089 Y175.519 E22.67524
G1 X152.430 Y176.861 E22.75813
G1 X151.632 Y176.861 E22.79302
G1 X150.290 Y175.519 E22.87591
G1 X150.020 Y175.519 E22.88769
G1 X149.348 Y175.376 E22.91769
G1 X150.833 Y176.861 E23.00939
G1 X150.034 Y176.861 E23.04428
G1 X148.987 Y175.814 E23.10894
G1 X148.930 Y176.364 E23.13309
G1 X149.126 Y176.364 E23.14165
G1 X149.126 Y176.751 E23.15856
G1 X149.235 Y176.861 E23.16534
G1 X148.663 Y177.000 F6000.000
G1 F1059.7
G1 X147.436 Y177.000 E23.17349
G1 X148.862 Y175.112 F6000.000
G1 F1059.7
G1 X145.393 Y174.374 E23.19405
G1 X141.000 Y172.418 E23.22192
G1 X137.110 Y169.592 E23.24980
G1 X133.897 Y166.024 E23.27764
G1 X131.487 Y161.849 E23.30559
G1 X130.003 Y157.282 E23.33343
G1 X129.500 Y152.500 E23.36131
G1 X130.003 Y147.718 E23.38918
G1 X131.487 Y143.151 E23.41702
G1 X133.897 Y138.976 E23.44497
G1 X137.110 Y135.408 E23.47281
G1 X141.000 Y132.582 E23.50069
G1 X145.393 Y130.626 E23.52856
G1 X148.862 Y129.888 E23.54913
G1 X149.271 Y129.530 F6000.000
G1 F2649.24
G1 X149.381 Y129.640 E23.55539
G1 X149.989 Y129.511 E23.58044
G1 X149.004 Y128.527 E23.63655
G1 X149.126 Y128.527 E23.64144
G1 X149.126 Y128.139 E23.65705
G1 X149.354 Y128.139 E23.66626
G1 X150.696 Y129.481 E23.74275
G1 X151.433 Y129.481 E23.77246
G1 X150.091 Y128.139 E23.84895
G1 X150.828 Y128.139 E23.87865
G1 X152.170 Y129.481 E23.95514
G1 X152.907 Y129.481 E23.98485
G1 X151.565 Y128.139 E24.06134
G1 X152.303 Y128.139 E24.09105
G1 X153.644 Y129.481 E24.16754
G1 X154.382 Y129.481 E24.19724
G1 X153.040 Y128.139 E24.27373
G1 X153.777 Y128.139 E24.30344
G1 X155.155 Y129.518 E24.38201
G1 X155.233 Y129.150 E24.39715
G1 X155.361 Y129.177 E24.40240
G1 X155.361 Y128.986 E24.41011
G1 X154.514 Y128.139 E24.45838
G1 X155.251 Y128.139 E24.48809
G1 X155.361 Y128.249 E24.49435
G1 E23.99435 F2400.00000
G92 E0
G1 X148.663 Y128.000 F6000.000
G1 E0.50000 F2400.00000
G1 F1059.7
G1 X147.436 Y128.000 E0.50815
G1 Z0.800 F6000.000
; LAYER: 2 
; LAYERZ: 0.8
G1 E0.00815 F2400.00000
G92 E0
G1 X156.053 Y130.195 F6000.000
G1 E0.50000 F2400.00000
G1 F1589.55
G1 X159.509 Y130.929 E0.64127
G1 X163.840 Y132.858 E0.83086
G1 X167.676 Y135.645 E1.02046
G1 X170.849 Y139.169 E1.21006
G1 X173.220 Y143.275 E1.39965
G1 X174.685 Y147.784 E1.58925
G1 X175.181 Y152.500 E1.77884
G1 X174.685 Y157.216 E1.96844
G1 X173.220 Y161.725 E2.15803
G1 X170.849 Y165.831 E2.34763
G1 X167.676 Y169.355 E2.53722
G1 X163.840 Y172.142 E2.72682
G1 X159.509 Y174.071 E2.91641
G1 X154.871 Y175.057 E3.10601
G1 X150.129 Y175.057 E3.29560
G1 X145.491 Y174.071 E3.48520
G1 X141.160 Y172.142 E3.67479
G1 X137.324 Y169.355 E3.86439
G1 X134.151 Y165.831 E4.05398
G1 X131.780 Y161.725 E4.24358
G1 X130.315 Y157.216 E4.43317
G1 X129.819 Y152.500 E4.62277
G1 X130.315 Y147.784 E4.81237
G1 X131.780 Y143.275 E5.00196
G1 X134.151 Y139.169 E5.19156
G1 X137.324 Y135.645 E5.38115
G1 X141.160 Y132.858 E5.57075
G1 X145.491 Y130.929 E5.76034
G1 X150.129 Y129.943 E5.94994
G1 X154.871 Y129.943 E6.13953
G1 X155.994 Y130.182 E6.18546
G1 X155.958 Y130.642 F6000.000
G1 F1800
G1 X159.367 Y131.366 E6.29247
G1 X163.611 Y133.256 E6.43511
G1 X167.369 Y135.986 E6.57776
G1 X170.477 Y139.439 E6.72040
G1 X172.800 Y143.462 E6.86305
G1 X174.236 Y147.880 E7.00569
G1 X174.721 Y152.500 E7.14834
G1 X174.236 Y157.120 E7.29099
G1 X172.800 Y161.538 E7.43363
G1 X170.477 Y165.561 E7.57628
G1 X167.369 Y169.014 E7.71892
G1 X163.611 Y171.744 E7.86157
G1 X159.367 Y173.634 E8.00421
G1 X154.823 Y174.599 E8.14686
G1 X150.177 Y174.599 E8.28950
G1 X145.633 Y173.634 E8.43215
G1 X141.389 Y171.744 E8.57479
G1 X137.631 Y169.014 E8.71744
G1 X134.523 Y165.561 E8.86008
G1 X132.200 Y161.538 E9.00273
G1 X130.764 Y157.120 E9.14537
G1 X130.279 Y152.500 E9.28802
G1 X130.764 Y147.880 E9.43066
G1 X132.200 Y143.462 E9.57331
G1 X134.523 Y139.439 E9.71595
G1 X137.631 Y135.986 E9.85860
G1 X141.389 Y133.256 E10.00124
G1 X145.633 Y131.366 E10.14389
G1 X150.177 Y130.401 E10.28653
G1 X154.823 Y130.401 E10.42918
G1 X155.899 Y130.629 E10.46297
