; generated by Slic3r 1.3.0 on 2020-02-25 at 21:30:30

; external perimeters extrusion width = 0.44mm (2.38mm^3/s)
; perimeters extrusion width = 0.56mm (3.10mm^3/s)
; infill extrusion width = 0.50mm (4.57mm^3/s)
; solid infill extrusion width = 0.56mm (5.17mm^3/s)
; top infill extrusion width = 0.56mm (5.17mm^3/s)

M107
; -- TypeA START GCODE --
G21        ;metric values
G90        ;absolute positioning
G28     ;move to endstops
G29		;allows for auto-levelling
G1 Z15.0 F12000 ;move the platform down 15mm
G1 X150 Y5 F12000 ;center
M140 S50;Prep Heat Bed
M109 S210 ;Heat hotend to temp
M190 S50 ;Heat Bed to temp
G1 X150 Y5 Z0.3 ;move the platform to purge extrusion
G92 E0 ;zero the extruded length
G1 F200 X250 E30 ;extrude 30mm of feed stock
G92 E0 ;zero the extruded length again
G1 X150 Y150  Z25 F12000 ;recenter and begin
G1 F12000

; Filament gcode

G21 ; set units to millimeters
G90 ; use absolute coordinates
M82 ; use absolute distances for extrusion
G92 E0
G1 Z0.400 F6000.000
; LAYER: 0 
; LAYERZ: 0.4
G1 E-0.50000 F2400.00000
G92 E0
G1 X117.335 Y85.678 F6000.000
G1 E0.50000 F2400.00000
G1 F900
G1 X117.848 Y85.165 E0.60967
G1 X117.411 Y84.191 E0.77123
G1 X117.051 Y83.040 E0.95373
G1 X116.763 Y81.511 E1.18926
G1 X116.631 Y79.514 E1.49212
G1 X116.754 Y79.253 E1.53580
G1 X117.768 Y78.515 E1.72559
G1 X118.055 Y78.480 E1.76927
G1 X119.883 Y79.208 E2.06707
G1 X121.250 Y79.951 E2.30263
G1 X122.262 Y80.667 E2.49018
G1 X123.053 Y81.383 E2.65172
G1 X123.699 Y81.054 E2.76139
G1 X123.585 Y79.993 E2.92294
G1 X123.600 Y78.754 E3.11048
G1 X123.803 Y77.210 E3.34604
G1 X124.288 Y75.303 E3.64382
G1 X124.486 Y75.093 E3.68749
G1 X125.678 Y74.705 E3.87728
G1 X125.962 Y74.760 E3.92097
G1 X127.500 Y76.040 E4.22383
G1 X128.568 Y77.172 E4.45937
G1 X129.287 Y78.140 E4.64186
G1 X129.819 Y79.066 E4.80341
G1 X130.535 Y78.952 E4.91307
G1 X130.755 Y77.908 E5.07462
G1 X131.151 Y76.734 E5.26217
G1 X131.822 Y75.329 E5.49772
G1 X132.872 Y73.665 E5.79552
G1 X133.125 Y73.526 E5.83920
G1 X134.379 Y73.526 E6.02899
G1 X134.632 Y73.665 E6.07267
G1 X135.699 Y75.358 E6.37553
G1 X136.365 Y76.765 E6.61108
G1 X136.750 Y77.908 E6.79356
G1 X136.969 Y78.952 E6.95511
G1 X137.685 Y79.066 E7.06478
G1 X138.217 Y78.140 E7.22633
G1 X138.936 Y77.172 E7.40882
G1 X140.004 Y76.040 E7.64436
G1 X141.542 Y74.760 E7.94722
G1 X141.826 Y74.705 E7.99091
G1 X143.018 Y75.093 E8.18069
G1 X143.216 Y75.303 E8.22437
G1 X143.701 Y77.210 E8.52214
G1 X143.904 Y78.754 E8.75771
G1 X143.919 Y79.993 E8.94525
G1 X143.805 Y81.054 E9.10680
G1 X144.451 Y81.383 E9.21647
G1 X145.243 Y80.667 E9.37801
G1 X146.254 Y79.951 E9.56556
G1 X147.622 Y79.208 E9.80111
G1 X149.450 Y78.480 E10.09891
G1 X149.736 Y78.515 E10.14260
G1 X150.751 Y79.253 E10.33238
G1 X150.873 Y79.514 E10.37606
G1 X150.741 Y81.511 E10.67893
G1 X150.454 Y83.040 E10.91446
G1 X150.093 Y84.191 E11.09696
G1 X149.656 Y85.165 E11.25851
G1 X150.169 Y85.678 E11.36819
G1 X151.143 Y85.242 E11.52975
G1 X152.294 Y84.881 E11.71224
G1 X153.824 Y84.593 E11.94778
G1 X155.820 Y84.461 E12.25064
G1 X156.082 Y84.584 E12.29432
G1 X156.819 Y85.598 E12.48410
G1 X156.855 Y85.885 E12.52779
G1 X156.126 Y87.713 E12.82559
G1 X155.384 Y89.081 E13.06114
G1 X154.667 Y90.092 E13.24869
G1 X153.951 Y90.884 E13.41023
G1 X154.280 Y91.529 E13.51990
G1 X155.342 Y91.416 E13.68145
G1 X156.581 Y91.430 E13.86900
G1 X158.124 Y91.633 E14.10456
G1 X160.031 Y92.119 E14.40233
G1 X160.242 Y92.316 E14.44601
G1 X160.629 Y93.509 E14.63580
G1 X160.575 Y93.792 E14.67948
G1 X159.294 Y95.330 E14.98234
G1 X158.163 Y96.399 E15.21788
G1 X157.194 Y97.117 E15.40037
G1 X156.269 Y97.649 E15.56192
G1 X156.382 Y98.365 E15.67159
G1 X157.427 Y98.585 E15.83314
G1 X158.570 Y98.969 E16.01563
G1 X159.976 Y99.636 E16.25117
G1 X161.669 Y100.702 E16.55403
G1 X161.809 Y100.955 E16.59772
G1 X161.809 Y102.209 E16.78750
G1 X161.669 Y102.462 E16.83119
G1 X160.006 Y103.513 E17.12898
G1 X158.601 Y104.183 E17.36453
G1 X157.427 Y104.580 E17.55208
G1 X156.382 Y104.800 E17.71363
G1 X156.269 Y105.515 E17.82330
G1 X157.194 Y106.047 E17.98484
G1 X158.163 Y106.766 E18.16734
G1 X159.294 Y107.835 E18.40288
G1 X160.575 Y109.372 E18.70573
G1 X160.629 Y109.656 E18.74942
G1 X160.242 Y110.849 E18.93921
G1 X160.031 Y111.046 E18.98289
G1 X158.124 Y111.531 E19.28066
G1 X156.581 Y111.734 E19.51622
G1 X155.342 Y111.749 E19.70377
G1 X154.280 Y111.635 E19.86532
G1 X153.951 Y112.281 E19.97498
G1 X154.667 Y113.073 E20.13652
G1 X155.384 Y114.084 E20.32407
G1 X156.126 Y115.452 E20.55963
G1 X156.855 Y117.280 E20.85743
G1 X156.819 Y117.566 E20.90112
G1 X156.082 Y118.581 E21.09090
G1 X155.820 Y118.703 E21.13458
G1 X153.824 Y118.571 E21.43744
G1 X152.294 Y118.284 E21.67298
G1 X151.143 Y117.923 E21.85547
G1 X150.169 Y117.487 E22.01703
G1 X149.656 Y117.999 E22.12670
G1 X150.093 Y118.973 E22.28826
G1 X150.454 Y120.124 E22.47076
G1 X150.741 Y121.654 E22.70629
G1 X150.873 Y123.651 E23.00916
G1 X150.751 Y123.912 E23.05284
G1 X149.736 Y124.649 E23.24262
G1 X149.450 Y124.685 E23.28631
G1 X147.622 Y123.957 E23.58411
G1 X146.254 Y123.214 E23.81966
G1 X145.243 Y122.497 E24.00721
G1 X144.451 Y121.781 E24.16875
G1 X143.805 Y122.110 E24.27842
G1 X143.919 Y123.172 E24.43997
G1 X143.904 Y124.411 E24.62751
G1 X143.701 Y125.954 E24.86307
G1 X143.216 Y127.861 E25.16085
G1 X143.018 Y128.072 E25.20453
G1 X141.826 Y128.459 E25.39431
G1 X141.542 Y128.405 E25.43800
G1 X140.004 Y127.125 E25.74086
G1 X138.936 Y125.993 E25.97640
G1 X138.217 Y125.025 E26.15889
G1 X137.685 Y124.099 E26.32044
G1 X136.969 Y124.212 E26.43011
G1 X136.750 Y125.257 E26.59166
G1 X136.365 Y126.400 E26.77414
G1 X135.699 Y127.806 E27.00969
G1 X134.632 Y129.500 E27.31255
G1 X134.379 Y129.639 E27.35623
G1 X133.125 Y129.639 E27.54602
G1 X132.872 Y129.500 E27.58970
G1 X131.822 Y127.836 E27.88750
G1 X131.151 Y126.431 E28.12305
G1 X130.755 Y125.257 E28.31060
G1 X130.535 Y124.212 E28.47215
G1 X129.819 Y124.099 E28.58181
G1 X129.287 Y125.025 E28.74336
G1 X128.568 Y125.993 E28.92585
G1 X127.500 Y127.125 E29.16139
G1 X125.962 Y128.405 E29.46425
G1 X125.678 Y128.459 E29.50794
G1 X124.486 Y128.072 E29.69773
G1 X124.288 Y127.861 E29.74140
G1 X123.803 Y125.954 E30.03918
G1 X123.600 Y124.411 E30.27474
G1 X123.585 Y123.172 E30.46228
G1 X123.699 Y122.110 E30.62383
G1 X123.053 Y121.781 E30.73350
G1 X122.262 Y122.497 E30.89504
G1 X121.250 Y123.214 E31.08259
G1 X119.883 Y123.957 E31.31814
G1 X118.055 Y124.685 E31.61595
G1 X117.768 Y124.649 E31.65963
G1 X116.754 Y123.912 E31.84942
G1 X116.631 Y123.651 E31.89310
G1 X116.763 Y121.654 E32.19596
G1 X117.051 Y120.124 E32.43149
G1 X117.411 Y118.973 E32.61399
G1 X117.848 Y117.999 E32.77555
G1 X117.335 Y117.487 E32.88522
G1 X116.361 Y117.923 E33.04678
G1 X115.178 Y118.292 E33.23433
G1 X113.647 Y118.576 E33.46988
G1 X111.684 Y118.703 E33.76767
G1 X111.422 Y118.581 E33.81135
G1 X110.685 Y117.566 E34.00113
G1 X110.649 Y117.280 E34.04482
G1 X111.392 Y115.421 E34.34769
G1 X112.138 Y114.056 E34.58323
G1 X112.837 Y113.073 E34.76573
G1 X113.553 Y112.281 E34.92727
G1 X113.224 Y111.635 E35.03693
G1 X112.163 Y111.749 E35.19848
G1 X110.957 Y111.737 E35.38097
G1 X109.413 Y111.537 E35.61652
G1 X107.473 Y111.046 E35.91936
G1 X107.263 Y110.849 E35.96304
G1 X106.875 Y109.656 E36.15283
G1 X106.929 Y109.372 E36.19652
G1 X108.187 Y107.859 E36.49431
G1 X109.316 Y106.788 E36.72986
G1 X110.310 Y106.047 E36.91741
G1 X111.235 Y105.515 E37.07895
G1 X111.122 Y104.800 E37.18862
G1 X110.078 Y104.580 E37.35017
G1 X108.904 Y104.183 E37.53771
G1 X107.499 Y103.513 E37.77327
G1 X105.835 Y102.462 E38.07106
G1 X105.695 Y102.209 E38.11475
G1 X105.695 Y100.955 E38.30453
G1 X105.835 Y100.702 E38.34822
G1 X107.528 Y99.636 E38.65108
G1 X108.935 Y98.969 E38.88662
G1 X110.078 Y98.585 E39.06911
G1 X111.122 Y98.365 E39.23066
G1 X111.235 Y97.649 E39.34033
G1 X110.310 Y97.117 E39.50188
G1 X109.342 Y96.399 E39.68437
G1 X108.210 Y95.330 E39.91991
G1 X106.929 Y93.792 E40.22277
G1 X106.875 Y93.509 E40.26645
G1 X107.263 Y92.316 E40.45624
G1 X107.473 Y92.119 E40.49992
G1 X109.380 Y91.633 E40.79769
G1 X110.923 Y91.430 E41.03325
G1 X112.163 Y91.416 E41.22080
G1 X113.224 Y91.529 E41.38235
G1 X113.553 Y90.884 E41.49201
G1 X112.837 Y90.092 E41.65355
G1 X112.121 Y89.081 E41.84110
G1 X111.378 Y87.713 E42.07666
G1 X110.649 Y85.885 E42.37446
G1 X110.685 Y85.598 E42.41815
G1 X111.422 Y84.584 E42.60793
G1 X111.684 Y84.461 E42.65161
G1 X113.681 Y84.593 E42.95447
G1 X115.210 Y84.881 E43.19001
G1 X116.361 Y85.242 E43.37250
G1 X117.281 Y85.653 E43.52498
G1 E43.02498 F2400.00000
G92 E0
G1 X191.375 Y159.499 F6000.000
G1 E0.50000 F2400.00000
G1 F900
G1 X193.063 Y158.334 E0.81034
G1 X193.190 Y158.285 E0.83096
G1 X195.226 Y158.038 E1.14130
G1 X195.361 Y158.055 E1.16191
G1 X195.476 Y158.098 E1.18049
G1 X197.279 Y158.782 E1.47225
G1 X197.391 Y158.859 E1.49286
G1 X198.750 Y160.394 E1.80321
G1 X198.814 Y160.515 E1.82382
G1 X199.305 Y162.506 E2.13416
G1 X199.305 Y162.642 E2.15477
G1 X198.814 Y164.633 E2.46511
G1 X198.750 Y164.754 E2.48572
G1 X197.391 Y166.289 E2.79607
G1 X197.279 Y166.366 E2.81668
G1 X197.164 Y166.410 E2.83526
G1 X195.361 Y167.093 E3.12702
G1 X195.226 Y167.110 E3.14763
G1 X193.190 Y166.863 E3.45798
G1 X193.063 Y166.814 E3.47859
G1 X191.375 Y165.649 E3.78893
G1 X191.285 Y165.547 E3.80954
G1 X190.389 Y163.840 E4.10130
G1 X190.332 Y163.731 E4.11989
G1 X190.299 Y163.599 E4.14050
G1 X190.299 Y161.549 E4.45084
G1 X190.332 Y161.416 E4.47145
G1 X191.285 Y159.600 E4.78179
G1 X191.335 Y159.543 E4.79332
G1 E4.29332 F2400.00000
G92 E0
G1 X135.913 Y159.132 F6000.000
G1 E0.50000 F2400.00000
G1 F900
G1 X137.813 Y162.424 E1.07516
G1 X137.813 Y162.724 E1.12064
G1 X135.913 Y166.016 E1.69579
G1 X135.652 Y166.166 E1.74127
G1 X131.852 Y166.166 E2.31642
G1 X131.592 Y166.016 E2.36191
G1 X129.691 Y162.724 E2.93706
G1 X129.691 Y162.424 E2.98254
G1 X131.592 Y159.132 E3.55770
G1 X131.852 Y158.982 E3.60318
G1 X135.652 Y158.982 E4.17833
G1 X135.861 Y159.102 E4.21473
G1 E3.71473 F2400.00000
G92 E0
G1 X132.248 Y215.643 F6000.000
G1 E0.50000 F2400.00000
G1 F900
G1 X132.493 Y215.697 E0.53803
G1 X133.437 Y216.425 E0.71842
G1 X134.039 Y217.126 E0.85828
G1 X134.372 Y217.733 E0.96316
G1 X134.598 Y218.478 E1.08085
G1 X135.198 Y218.615 E1.17397
G1 X135.680 Y218.081 E1.28291
G1 X136.237 Y217.669 E1.38767
G1 X137.134 Y217.269 E1.53638
G1 X138.301 Y217.022 E1.71677
G1 X138.545 Y217.080 E1.75480
G1 X139.008 Y217.449 E1.84443
G1 X139.119 Y217.675 E1.88246
G1 X139.138 Y218.867 E2.06286
G1 X138.965 Y219.775 E2.20271
G1 X138.699 Y220.414 E2.30759
G1 X138.257 Y221.055 E2.42529
G1 X138.524 Y221.609 E2.51841
G1 X139.300 Y221.663 E2.63608
G1 X139.966 Y221.853 E2.74096
G1 X140.784 Y222.284 E2.88082
G1 X141.704 Y223.042 E3.06121
G1 X141.811 Y223.269 E3.09924
G1 X141.811 Y223.862 E3.18887
G1 X141.704 Y224.089 E3.22690
G1 X140.784 Y224.847 E3.40729
G1 X139.912 Y225.299 E3.55600
G1 X139.243 Y225.478 E3.66077
G1 X138.524 Y225.522 E3.76971
G1 X138.257 Y226.076 E3.86282
G1 X138.698 Y226.717 E3.98050
G1 X138.965 Y227.356 E4.08538
G1 X139.138 Y228.264 E4.22524
G1 X139.119 Y229.456 E4.40563
G1 X139.008 Y229.682 E4.44367
G1 X138.545 Y230.051 E4.53329
G1 X138.301 Y230.109 E4.57132
G1 X137.134 Y229.862 E4.75171
G1 X136.237 Y229.462 E4.90042
G1 X135.680 Y229.050 E5.00520
G1 X135.198 Y228.516 E5.11413
G1 X134.598 Y228.653 E5.20724
G1 X134.372 Y229.397 E5.32492
G1 X134.039 Y230.005 E5.42981
G1 X133.437 Y230.706 E5.56967
G1 X132.493 Y231.434 E5.75006
G1 X132.247 Y231.488 E5.78809
G1 X131.670 Y231.356 E5.87771
G1 X131.472 Y231.201 E5.91575
G1 X130.938 Y230.136 E6.09614
G1 X130.691 Y229.185 E6.24484
G1 X130.666 Y228.493 E6.34962
G1 X130.783 Y227.783 E6.45854
G1 X130.302 Y227.399 E6.55165
G1 X129.579 Y227.687 E6.66935
G1 X128.896 Y227.805 E6.77424
G1 X127.973 Y227.771 E6.91409
G1 X126.815 Y227.487 E7.09448
G1 X126.620 Y227.329 E7.13252
G1 X126.420 Y226.915 E7.20210
G1 X126.363 Y226.795 E7.22215
G1 X126.361 Y226.544 E7.26018
G1 X126.861 Y225.462 E7.44057
G1 X127.410 Y224.719 E7.58042
G1 X127.928 Y224.258 E7.68530
G1 X128.604 Y223.873 E7.80299
G1 X128.604 Y223.258 E7.89610
G1 X127.976 Y222.906 E8.00503
G1 X127.450 Y222.455 E8.10980
G1 X126.861 Y221.669 E8.25852
G1 X126.361 Y220.587 E8.43891
G1 X126.363 Y220.336 E8.47694
G1 X126.620 Y219.802 E8.56657
G1 X126.815 Y219.644 E8.60460
G1 X127.973 Y219.360 E8.78498
G1 X128.896 Y219.326 E8.92484
G1 X129.579 Y219.444 E9.02973
G1 X130.302 Y219.732 E9.14741
G1 X130.783 Y219.349 E9.24053
G1 X130.666 Y218.638 E9.34946
G1 X130.691 Y217.946 E9.45423
G1 X130.938 Y216.995 E9.60294
G1 X131.472 Y215.930 E9.78333
G1 X131.670 Y215.775 E9.82135
G1 X132.189 Y215.656 E9.90191
G1 E9.40191 F2400.00000
G92 E0
G1 X144.670 Y120.521 F6000.000
G1 E0.50000 F2400.00000
G1 F540
G1 X142.656 Y121.547 E0.74428
G1 X142.870 Y122.403 E0.83964
G1 X142.958 Y123.202 E0.92655
G1 X142.946 Y124.327 E1.04811
G1 X142.760 Y125.757 E1.20393
G1 X142.375 Y127.271 E1.37276
G1 X141.876 Y127.433 E1.42945
G1 X140.674 Y126.434 E1.59829
G1 X139.683 Y125.387 E1.75411
G1 X139.013 Y124.484 E1.87567
G1 X138.613 Y123.786 E1.96259
G1 X138.284 Y122.968 E2.05793
G1 X136.051 Y123.322 E2.30221
G1 X135.990 Y124.202 E2.39757
G1 X135.826 Y124.989 E2.48448
G1 X135.467 Y126.055 E2.60604
G1 X134.849 Y127.357 E2.76186
G1 X134.014 Y128.678 E2.93071
G1 X133.490 Y128.678 E2.98739
G1 X132.656 Y127.357 E3.15624
G1 X132.037 Y126.055 E3.31205
G1 X131.678 Y124.989 E3.43362
G1 X131.514 Y124.202 E3.52052
G1 X131.453 Y123.322 E3.61588
G1 X129.221 Y122.968 E3.86017
G1 X128.891 Y123.786 E3.95551
G1 X128.492 Y124.484 E4.04243
G1 X127.821 Y125.387 E4.16399
G1 X126.830 Y126.434 E4.31981
G1 X125.628 Y127.433 E4.48865
G1 X125.130 Y127.271 E4.54533
G1 X124.744 Y125.757 E4.71417
G1 X124.558 Y124.327 E4.86999
G1 X124.547 Y123.202 E4.99155
G1 X124.634 Y122.403 E5.07846
G1 X124.848 Y121.547 E5.17381
G1 X122.834 Y120.521 E5.41810
G1 X122.267 Y121.197 E5.51344
G1 X121.672 Y121.738 E5.60035
G1 X120.755 Y122.389 E5.72192
G1 X119.489 Y123.079 E5.87773
G1 X118.038 Y123.657 E6.04658
G1 X117.613 Y123.349 E6.10326
G1 X117.715 Y121.790 E6.27211
G1 X117.980 Y120.373 E6.42793
G1 X118.316 Y119.300 E6.54949
G1 X118.646 Y118.566 E6.63640
G1 X119.114 Y117.819 E6.73174
G1 X117.516 Y116.220 E6.97604
G1 X116.768 Y116.688 E7.07138
G1 X116.035 Y117.018 E7.15829
G1 X114.962 Y117.355 E7.27985
G1 X113.544 Y117.619 E7.43566
G1 X111.985 Y117.721 E7.60451
G1 X111.677 Y117.297 E7.66120
G1 X112.255 Y115.845 E7.83004
G1 X112.945 Y114.579 E7.98586
G1 X113.597 Y113.662 E8.10743
G1 X114.137 Y113.067 E8.19434
G1 X114.813 Y112.500 E8.28968
G1 X113.787 Y110.486 E8.53396
G1 X112.931 Y110.701 E8.62932
G1 X112.132 Y110.788 E8.71623
G1 X111.007 Y110.776 E8.83779
G1 X109.578 Y110.590 E8.99361
G1 X108.064 Y110.205 E9.16244
G1 X107.901 Y109.706 E9.21913
G1 X108.900 Y108.504 E9.38797
G1 X109.947 Y107.513 E9.54379
G1 X110.850 Y106.843 E9.66535
G1 X111.548 Y106.444 E9.75227
G1 X112.366 Y106.114 E9.84761
G1 X112.013 Y103.881 E10.09190
G1 X111.133 Y103.820 E10.18725
G1 X110.345 Y103.656 E10.27416
G1 X109.279 Y103.298 E10.39572
G1 X107.977 Y102.679 E10.55154
G1 X106.656 Y101.845 E10.72039
G1 X106.656 Y101.320 E10.77707
G1 X107.977 Y100.486 E10.94592
G1 X109.279 Y99.867 E11.10174
G1 X110.345 Y99.508 E11.22330
G1 X111.133 Y99.344 E11.31021
G1 X112.013 Y99.283 E11.40556
G1 X112.366 Y97.051 E11.64985
G1 X111.548 Y96.721 E11.74519
G1 X110.850 Y96.322 E11.83211
G1 X109.947 Y95.651 E11.95367
G1 X108.900 Y94.660 E12.10949
G1 X107.901 Y93.459 E12.27833
G1 X108.064 Y92.960 E12.33501
G1 X109.578 Y92.575 E12.50385
G1 X111.007 Y92.388 E12.65967
G1 X112.132 Y92.377 E12.78123
G1 X112.931 Y92.464 E12.86814
G1 X113.787 Y92.678 E12.96350
G1 X114.813 Y90.664 E13.20778
G1 X114.137 Y90.098 E13.30312
G1 X113.597 Y89.502 E13.39003
G1 X112.945 Y88.585 E13.51160
G1 X112.255 Y87.319 E13.66742
G1 X111.677 Y85.868 E13.83626
G1 X111.985 Y85.444 E13.89295
G1 X113.544 Y85.545 E14.06180
G1 X114.962 Y85.810 E14.21761
G1 X116.035 Y86.146 E14.33917
G1 X116.768 Y86.476 E14.42608
G1 X117.516 Y86.944 E14.52142
G1 X119.114 Y85.346 E14.76572
G1 X118.646 Y84.598 E14.86106
G1 X118.316 Y83.865 E14.94797
G1 X117.980 Y82.792 E15.06953
G1 X117.715 Y81.375 E15.22535
G1 X117.613 Y79.816 E15.39420
