; generated by Slic3r 1.3.0 on 2020-03-23 at 20:10:49

; external perimeters extrusion width = 0.44mm (2.38mm^3/s)
; perimeters extrusion width = 0.56mm (3.10mm^3/s)
; infill extrusion width = 0.50mm (4.57mm^3/s)
; solid infill extrusion width = 0.56mm (5.17mm^3/s)
; top infill extrusion width = 0.56mm (5.17mm^3/s)

M107
; -- TypeA START GCODE --
G21        ;metric values
G90        ;absolute positioning
G28     ;move to endstops
G29		;allows for auto-levelling
G1 Z15.0 F12000 ;move the platform down 15mm
G1 X150 Y5 F12000 ;center
M140 S50;Prep Heat Bed
M109 S210 ;Heat hotend to temp
M190 S50 ;Heat Bed to temp
G1 X150 Y5 Z0.3 ;move the platform to purge extrusion
G92 E0 ;zero the extruded length
G1 F200 X250 E30 ;extrude 30mm of feed stock
G92 E0 ;zero the extruded length again
G1 X150 Y150  Z25 F12000 ;recenter and begin
G1 F12000

; Filament gcode

G21 ; set units to millimeters
G90 ; use absolute coordinates
M82 ; use absolute distances for extrusion
G92 E0
G1 Z0.400 F6000.000
; LAYER: 0 
; LAYERZ: 0.4
G1 E-0.50000 F2400.00000
G92 E0
G1 X154.939 Y134.268 F6000.000
G1 E0.50000 F2400.00000
G1 F900
G1 X155.268 Y133.939 E0.57186
G1 X180.732 Y133.939 E4.51020
G1 X181.061 Y134.268 E4.58206
G1 X181.061 Y149.732 E6.97381
G1 X180.732 Y150.061 E7.04567
G1 X155.268 Y150.061 E10.98402
G1 X154.939 Y149.732 E11.05588
G1 X154.939 Y134.328 E13.43835
G1 E12.93835 F2400.00000
G92 E0
G1 X149.732 Y154.939 F6000.000
G1 E0.50000 F2400.00000
G1 F900
G1 X150.061 Y155.268 E0.57186
G1 X150.061 Y170.732 E2.96361
G1 X149.732 Y171.061 E3.03547
G1 X124.268 Y171.061 E6.97381
G1 X123.939 Y170.732 E7.04567
G1 X123.939 Y155.268 E9.43742
G1 X124.268 Y154.939 E9.50928
G1 X149.672 Y154.939 E13.43835
G1 E12.93835 F2400.00000
G92 E0
G1 X180.100 Y149.100 F6000.000
G1 E0.50000 F2400.00000
G1 F540
G1 X155.900 Y149.100 E3.17293
G1 X155.900 Y134.900 E4.74134
G1 X180.100 Y134.900 E7.41427
G1 X180.100 Y149.040 E8.97606
G1 X179.706 Y149.030 F6000.000
G1 X179.386 Y148.386 F6000.000
G1 F540
G1 X156.614 Y148.386 E11.49123
G1 X156.614 Y135.614 E12.90188
G1 X179.386 Y135.614 E15.41705
G1 X179.386 Y148.326 E16.82107
G1 X178.596 Y147.747 F6000.000
G1 F900
G1 X178.747 Y147.596 E16.84503
G1 X178.747 Y146.574 E16.95913
G1 X177.574 Y147.747 E17.14445
G1 X176.553 Y147.747 E17.25856
G1 X178.747 Y145.553 E17.60525
G1 X178.747 Y144.531 E17.71935
G1 X175.531 Y147.747 E18.22741
G1 X174.510 Y147.747 E18.34151
G1 X178.747 Y143.510 E19.01093
G1 X178.747 Y142.489 E19.12504
G1 X173.489 Y147.747 E19.95583
G1 X172.467 Y147.747 E20.06993
G1 X178.747 Y141.467 E21.06209
G1 X178.747 Y140.446 E21.17619
G1 X171.446 Y147.747 E22.32972
G1 X170.424 Y147.747 E22.44382
G1 X178.747 Y139.424 E23.75871
G1 X178.747 Y138.403 E23.87281
G1 X169.403 Y147.747 E25.34907
G1 X168.381 Y147.747 E25.46318
G1 X178.747 Y137.381 E27.10080
G1 X178.747 Y136.360 E27.21490
G1 X167.360 Y147.747 E29.01389
G1 X166.338 Y147.747 E29.12800
G1 X177.833 Y136.253 E30.94394
G1 X176.812 Y136.253 E31.05804
G1 X165.317 Y147.747 E32.87398
G1 X164.295 Y147.747 E32.98808
G1 X175.790 Y136.253 E34.80402
G1 X174.769 Y136.253 E34.91812
G1 X163.274 Y147.747 E36.73406
G1 X162.253 Y147.747 E36.84817
G1 X173.747 Y136.253 E38.66410
G1 X172.726 Y136.253 E38.77821
G1 X161.231 Y147.747 E40.59415
G1 X160.210 Y147.747 E40.70825
G1 X171.705 Y136.253 E42.52419
G1 X170.683 Y136.253 E42.63829
G1 X159.188 Y147.747 E44.45423
G1 X158.167 Y147.747 E44.56833
G1 X169.662 Y136.253 E46.38427
G1 X168.640 Y136.253 E46.49838
G1 X157.253 Y147.640 E48.29737
G1 X157.253 Y146.619 E48.41147
G1 X167.619 Y136.253 E50.04910
G1 X166.597 Y136.253 E50.16320
G1 X157.253 Y145.597 E51.63946
G1 X157.253 Y144.576 E51.75356
G1 X165.576 Y136.253 E53.06845
G1 X164.554 Y136.253 E53.18256
G1 X157.253 Y143.554 E54.33608
G1 X157.253 Y142.533 E54.45018
G1 X163.533 Y136.253 E55.44234
G1 X162.511 Y136.253 E55.55644
G1 X157.253 Y141.511 E56.38723
G1 X157.253 Y140.490 E56.50134
G1 X161.490 Y136.253 E57.17076
G1 X160.469 Y136.253 E57.28487
G1 X157.253 Y139.469 E57.79292
G1 X157.253 Y138.447 E57.90703
G1 X159.447 Y136.253 E58.25371
G1 X158.426 Y136.253 E58.36782
G1 X157.253 Y137.426 E58.55314
G1 X157.253 Y136.404 E58.66724
G1 X157.404 Y136.253 E58.69120
G1 Z0.400 F6000.000
; LAYER: 1 
; LAYERZ: 0.4
G1 E58.19120 F2400.00000
G92 E0
G1 X149.100 Y155.900 F6000.000
G1 E0.50000 F2400.00000
G1 F540
G1 X149.100 Y170.100 E2.06841
G1 X124.900 Y170.100 E4.74134
G1 X124.900 Y155.900 E6.30975
G1 X149.040 Y155.900 E8.97606
G1 X148.964 Y156.276 F6000.000
G1 X148.386 Y156.614 F6000.000
G1 F540
G1 X148.386 Y169.386 E10.38671
G1 X125.614 Y169.386 E12.90188
G1 X125.614 Y156.614 E14.31253
G1 X148.326 Y156.614 E16.82107
G1 E16.32107 F2400.00000
G92 E0
G1 X147.596 Y168.747 F6000.000
G1 E0.50000 F2400.00000
G1 F900
G1 X147.747 Y168.596 E0.52396
G1 X147.747 Y167.574 E0.63806
G1 X146.574 Y168.747 E0.82338
G1 X145.553 Y168.747 E0.93748
G1 X147.747 Y166.553 E1.28417
G1 X147.747 Y165.531 E1.39828
G1 X144.531 Y168.747 E1.90633
G1 X143.510 Y168.747 E2.02044
G1 X147.747 Y164.510 E2.68986
G1 X147.747 Y163.489 E2.80396
G1 X142.489 Y168.747 E3.63475
G1 X141.467 Y168.747 E3.74886
G1 X147.747 Y162.467 E4.74101
G1 X147.747 Y161.446 E4.85512
G1 X140.446 Y168.747 E6.00864
G1 X139.424 Y168.747 E6.12275
G1 X147.747 Y160.424 E7.43764
G1 X147.747 Y159.403 E7.55174
G1 X138.403 Y168.747 E9.02800
G1 X137.381 Y168.747 E9.14210
G1 X147.747 Y158.381 E10.77973
G1 X147.747 Y157.360 E10.89383
G1 X136.360 Y168.747 E12.69282
G1 X135.338 Y168.747 E12.80692
G1 X146.833 Y157.253 E14.62286
G1 X145.812 Y157.253 E14.73697
G1 X134.317 Y168.747 E16.55290
G1 X133.295 Y168.747 E16.66701
G1 X144.790 Y157.253 E18.48295
G1 X143.769 Y157.253 E18.59705
G1 X132.274 Y168.747 E20.41299
G1 X131.253 Y168.747 E20.52709
G1 X142.747 Y157.253 E22.34303
G1 X141.726 Y157.253 E22.45713
G1 X130.231 Y168.747 E24.27307
G1 X129.210 Y168.747 E24.38718
G1 X140.705 Y157.253 E26.20311
G1 X139.683 Y157.253 E26.31722
G1 X128.188 Y168.747 E28.13316
G1 X127.167 Y168.747 E28.24726
G1 X138.662 Y157.253 E30.06320
G1 X137.640 Y157.253 E30.17730
G1 X126.253 Y168.640 E31.97629
G1 X126.253 Y167.619 E32.09040
G1 X136.619 Y157.253 E33.72802
G1 X135.597 Y157.253 E33.84213
G1 X126.253 Y166.597 E35.31838
G1 X126.253 Y165.576 E35.43249
G1 X134.576 Y157.253 E36.74738
G1 X133.554 Y157.253 E36.86148
G1 X126.253 Y164.554 E38.01501
G1 X126.253 Y163.533 E38.12911
G1 X132.533 Y157.253 E39.12127
G1 X131.511 Y157.253 E39.23537
G1 X126.253 Y162.511 E40.06616
G1 X126.253 Y161.490 E40.18026
G1 X130.490 Y157.253 E40.84969
G1 X129.469 Y157.253 E40.96379
G1 X126.253 Y160.469 E41.47185
G1 X126.253 Y159.447 E41.58595
G1 X128.447 Y157.253 E41.93264
G1 X127.426 Y157.253 E42.04674
G1 X126.253 Y158.426 E42.23207
G1 X126.253 Y157.404 E42.34617
G1 X126.404 Y157.253 E42.37013
M106 S232.05
G1 Z0.600 F6000.000
; LAYER: 2 
; LAYERZ: 0.6
G1 E41.87013 F2400.00000
G92 E0
G1 X179.823 Y148.823 F6000.000
G1 E0.50000 F2400.00000
G1 F1800
G1 X156.177 Y148.823 E1.44549
G1 X156.177 Y135.177 E1.99113
G1 X179.823 Y135.177 E2.93663
G1 X179.823 Y148.763 E3.47987
G1 X180.280 Y149.280 F6000.000
G1 F1800
G1 X155.720 Y149.280 E4.23401
G1 X155.720 Y134.720 E4.68109
G1 X180.280 Y134.720 E5.43523
G1 X180.280 Y149.220 E5.88047
G1 X179.886 Y149.209 F6000.000
G1 E5.38047 F2400.00000
G92 E0
G1 X179.361 Y135.749 F6000.000
G1 E0.50000 F2400.00000
G1 F3000
G1 X179.251 Y135.639 E0.50623
G1 X178.517 Y135.639 E0.53568
G1 X179.361 Y136.483 E0.58355
G1 X179.361 Y137.217 E0.61299
G1 X177.783 Y135.639 E0.70251
G1 X177.049 Y135.639 E0.73195
G1 X179.361 Y137.951 E0.86311
G1 X179.361 Y138.684 E0.89255
G1 X176.316 Y135.639 E1.06535
G1 X175.582 Y135.639 E1.09479
G1 X179.361 Y139.418 E1.30923
G1 X179.361 Y140.152 E1.33868
G1 X174.848 Y135.639 E1.59475
G1 X174.114 Y135.639 E1.62420
G1 X179.361 Y140.886 E1.92192
G1 X179.361 Y141.620 E1.95136
G1 X173.380 Y135.639 E2.29072
G1 X172.647 Y135.639 E2.32017
G1 X179.361 Y142.353 E2.70117
G1 X179.361 Y143.087 E2.73061
G1 X171.913 Y135.639 E3.15326
G1 X171.179 Y135.639 E3.18270
G1 X179.361 Y143.821 E3.64698
G1 X179.361 Y144.555 E3.67643
G1 X170.445 Y135.639 E4.18235
G1 X169.711 Y135.639 E4.21180
G1 X179.361 Y145.289 E4.75936
G1 X179.361 Y146.023 E4.78881
G1 X168.977 Y135.639 E5.37801
G1 X168.244 Y135.639 E5.40746
G1 X179.361 Y146.756 E6.03830
G1 X179.361 Y147.490 E6.06775
G1 X167.510 Y135.639 E6.74024
G1 X166.776 Y135.639 E6.76968
G1 X179.361 Y148.224 E7.48381
G1 X179.361 Y148.361 E7.48930
G1 X178.764 Y148.361 E7.51326
G1 X166.042 Y135.639 E8.23514
G1 X165.308 Y135.639 E8.26459
G1 X178.030 Y148.361 E8.98647
G1 X177.296 Y148.361 E9.01592
G1 X164.575 Y135.639 E9.73781
G1 X163.841 Y135.639 E9.76725
G1 X176.562 Y148.361 E10.48914
G1 X175.828 Y148.361 E10.51858
G1 X163.107 Y135.639 E11.24047
G1 X162.373 Y135.639 E11.26992
G1 X175.095 Y148.361 E11.99180
G1 X174.361 Y148.361 E12.02125
G1 X161.639 Y135.639 E12.74313
G1 X160.905 Y135.639 E12.77258
G1 X173.627 Y148.361 E13.49447
G1 X172.893 Y148.361 E13.52391
G1 X160.172 Y135.639 E14.24580
G1 X159.438 Y135.639 E14.27524
G1 X172.159 Y148.361 E14.99713
G1 X171.425 Y148.361 E15.02657
G1 X158.704 Y135.639 E15.74846
G1 X157.970 Y135.639 E15.77791
G1 X170.692 Y148.361 E16.49979
G1 X169.958 Y148.361 E16.52924
G1 X157.236 Y135.639 E17.25113
G1 X156.639 Y135.639 E17.27509
G1 X156.639 Y135.776 E17.28057
G1 X169.224 Y148.361 E17.99470
G1 X168.490 Y148.361 E18.02415
G1 X156.639 Y136.510 E18.69664
G1 X156.639 Y137.244 E18.72608
G1 X167.756 Y148.361 E19.35693
G1 X167.023 Y148.361 E19.38637
G1 X156.639 Y137.977 E19.97558
G1 X156.639 Y138.711 E20.00502
G1 X166.289 Y148.361 E20.55259
G1 X165.555 Y148.361 E20.58204
G1 X156.639 Y139.445 E21.08796
G1 X156.639 Y140.179 E21.11741
G1 X164.821 Y148.361 E21.58169
G1 X164.087 Y148.361 E21.61113
G1 X156.639 Y140.913 E22.03378
G1 X156.639 Y141.647 E22.06322
G1 X163.353 Y148.361 E22.44423
G1 X162.620 Y148.361 E22.47367
G1 X156.639 Y142.380 E22.81303
G1 X156.639 Y143.114 E22.84248
G1 X161.886 Y148.361 E23.14020
G1 X161.152 Y148.361 E23.16964
G1 X156.639 Y143.848 E23.42572
G1 X156.639 Y144.582 E23.45517
G1 X160.418 Y148.361 E23.66960
G1 X159.684 Y148.361 E23.69905
G1 X156.639 Y145.316 E23.87185
G1 X156.639 Y146.049 E23.90129
G1 X158.951 Y148.361 E24.03245
G1 X158.217 Y148.361 E24.06189
G1 X156.639 Y146.783 E24.15141
G1 X156.639 Y147.517 E24.18085
G1 X157.483 Y148.361 E24.22873
G1 X156.749 Y148.361 E24.25817
G1 X156.639 Y148.251 E24.26441
G1 Z0.600 F6000.000
; LAYER: 3 
; LAYERZ: 0.6
G1 E23.76441 F2400.00000
G92 E0
G1 X148.823 Y156.177 F6000.000
G1 E0.50000 F2400.00000
G1 F1800
G1 X148.823 Y169.823 E1.04564
G1 X125.177 Y169.823 E1.99113
G1 X125.177 Y156.177 E2.53677
G1 X148.763 Y156.177 E3.47987
G1 X149.280 Y155.720 F6000.000
G1 F1800
G1 X149.280 Y170.280 E3.92695
G1 X124.720 Y170.280 E4.68109
G1 X124.720 Y155.720 E5.12817
G1 X149.220 Y155.720 E5.88047
G1 X149.145 Y156.096 F6000.000
G1 X148.361 Y156.749 F6000.000
G1 F3000
G1 X148.251 Y156.639 E5.88670
G1 X147.517 Y156.639 E5.91615
G1 X148.361 Y157.483 E5.96402
G1 X148.361 Y158.217 E5.99346
G1 X146.783 Y156.639 E6.08298
G1 X146.049 Y156.639 E6.11242
G1 X148.361 Y158.951 E6.24358
G1 X148.361 Y159.684 E6.27302
G1 X145.316 Y156.639 E6.44582
G1 X144.582 Y156.639 E6.47526
G1 X148.361 Y160.418 E6.68970
G1 X148.361 Y161.152 E6.71915
G1 X143.848 Y156.639 E6.97522
G1 X143.114 Y156.639 E7.00467
G1 X148.361 Y161.886 E7.30239
G1 X148.361 Y162.620 E7.33183
G1 X142.380 Y156.639 E7.67119
G1 X141.647 Y156.639 E7.70064
G1 X148.361 Y163.353 E8.08164
G1 X148.361 Y164.087 E8.11108
G1 X140.913 Y156.639 E8.53373
G1 X140.179 Y156.639 E8.56317
G1 X148.361 Y164.821 E9.02745
G1 X148.361 Y165.555 E9.05690
G1 X139.445 Y156.639 E9.56282
G1 X138.711 Y156.639 E9.59227
G1 X148.361 Y166.289 E10.13983
G1 X148.361 Y167.023 E10.16928
G1 X137.977 Y156.639 E10.75848
G1 X137.244 Y156.639 E10.78793
G1 X148.361 Y167.756 E11.41877
G1 X148.361 Y168.490 E11.44822
G1 X136.510 Y156.639 E12.12071
G1 X135.776 Y156.639 E12.15015
G1 X148.361 Y169.224 E12.86428
G1 X148.361 Y169.361 E12.86977
G1 X147.764 Y169.361 E12.89373
G1 X135.042 Y156.639 E13.61561
G1 X134.308 Y156.639 E13.64506
G1 X147.030 Y169.361 E14.36694
G1 X146.296 Y169.361 E14.39639
G1 X133.575 Y156.639 E15.11828
G1 X132.841 Y156.639 E15.14772
G1 X145.562 Y169.361 E15.86961
G1 X144.828 Y169.361 E15.89905
G1 X132.107 Y156.639 E16.62094
G1 X131.373 Y156.639 E16.65039
G1 X144.095 Y169.361 E17.37227
G1 X143.361 Y169.361 E17.40172
G1 X130.639 Y156.639 E18.12360
G1 X129.905 Y156.639 E18.15305
G1 X142.627 Y169.361 E18.87494
G1 X141.893 Y169.361 E18.90438
G1 X129.172 Y156.639 E19.62627
G1 X128.438 Y156.639 E19.65571
G1 X141.159 Y169.361 E20.37760
G1 X140.425 Y169.361 E20.40704
G1 X127.704 Y156.639 E21.12893
G1 X126.970 Y156.639 E21.15838
G1 X139.692 Y169.361 E21.88026
G1 X138.958 Y169.361 E21.90971
G1 X126.236 Y156.639 E22.63160
G1 X125.639 Y156.639 E22.65556
G1 X125.639 Y156.776 E22.66104
G1 X138.224 Y169.361 E23.37517
G1 X137.490 Y169.361 E23.40462
G1 X125.639 Y157.510 E24.07711
G1 X125.639 Y158.244 E24.10655
G1 X136.756 Y169.361 E24.73740
G1 X136.023 Y169.361 E24.76684
G1 X125.639 Y158.977 E25.35605
G1 X125.639 Y159.711 E25.38549
G1 X135.289 Y169.361 E25.93306
G1 X134.555 Y169.361 E25.96251
G1 X125.639 Y160.445 E26.46843
G1 X125.639 Y161.179 E26.49788
G1 X133.821 Y169.361 E26.96216
G1 X133.087 Y169.361 E26.99160
G1 X125.639 Y161.913 E27.41425
G1 X125.639 Y162.647 E27.44369
G1 X132.353 Y169.361 E27.82470
G1 X131.620 Y169.361 E27.85414
G1 X125.639 Y163.380 E28.19350
G1 X125.639 Y164.114 E28.22295
G1 X130.886 Y169.361 E28.52067
G1 X130.152 Y169.361 E28.55011
G1 X125.639 Y164.848 E28.80619
G1 X125.639 Y165.582 E28.83564
G1 X129.418 Y169.361 E29.05007
G1 X128.684 Y169.361 E29.07952
G1 X125.639 Y166.316 E29.25232
G1 X125.639 Y167.049 E29.28176
G1 X127.951 Y169.361 E29.41292
G1 X127.217 Y169.361 E29.44236
G1 X125.639 Y167.783 E29.53188
G1 X125.639 Y168.517 E29.56132
G1 X126.483 Y169.361 E29.60920
G1 X125.749 Y169.361 E29.63864
G1 X125.639 Y169.251 E29.64488
G1 Z0.800 F6000.000
; LAYER: 4 
; LAYERZ: 0.8
G1 E29.14488 F2400.00000
G92 E0
G1 X179.823 Y148.823 F6000.000
G1 E0.50000 F2400.00000
G1 F1800
G1 X156.177 Y148.823 E1.44549
G1 X156.177 Y135.177 E1.99113
G1 X179.823 Y135.177 E2.93663
G1 X179.823 Y148.763 E3.47987
G1 X180.280 Y149.280 F6000.000
G1 F1800
G1 X155.720 Y149.280 E4.23401
G1 X155.720 Y134.720 E4.68109
G1 X180.280 Y134.720 E5.43523
G1 X180.280 Y149.220 E5.88047
G1 X179.886 Y149.209 F6000.000
G1 X179.251 Y148.361 F6000.000
G1 F3000
G1 X179.361 Y148.251 E5.88670
G1 X179.361 Y147.517 E5.91615
G1 X178.517 Y148.361 E5.96402
G1 X177.783 Y148.361 E5.99347
G1 X179.361 Y146.783 E6.08298
G1 X179.361 Y146.049 E6.11242
G1 X177.049 Y148.361 E6.24358
G1 X176.316 Y148.361 E6.27302
G1 X179.361 Y145.316 E6.44582
G1 X179.361 Y144.582 E6.47526
G1 X175.582 Y148.361 E6.68970
G1 X174.848 Y148.361 E6.71915
G1 X179.361 Y143.848 E6.97523
G1 X179.361 Y143.114 E7.00467
G1 X174.114 Y148.361 E7.30239
G1 X173.380 Y148.361 E7.33183
G1 X179.361 Y142.380 E7.67119
G1 X179.361 Y141.647 E7.70064
G1 X172.647 Y148.361 E8.08164
G1 X171.913 Y148.361 E8.11108
G1 X179.361 Y140.913 E8.53373
G1 X179.361 Y140.179 E8.56317
G1 X171.179 Y148.361 E9.02745
G1 X170.445 Y148.361 E9.05690
G1 X179.361 Y139.445 E9.56282
G1 X179.361 Y138.711 E9.59227
G1 X169.711 Y148.361 E10.13983
G1 X168.977 Y148.361 E10.16928
G1 X179.361 Y137.977 E10.75848
G1 X179.361 Y137.244 E10.78793
G1 X168.244 Y148.361 E11.41877
G1 X167.510 Y148.361 E11.44822
G1 X179.361 Y136.510 E12.12071
G1 X179.361 Y135.776 E12.15015
G1 X166.776 Y148.361 E12.86428
G1 X166.042 Y148.361 E12.89373
G1 X178.764 Y135.639 E13.61561
G1 X178.030 Y135.639 E13.64506
G1 X165.308 Y148.361 E14.36694
G1 X164.575 Y148.361 E14.39639
G1 X177.296 Y135.639 E15.11828
G1 X176.562 Y135.639 E15.14772
G1 X163.841 Y148.361 E15.86961
G1 X163.107 Y148.361 E15.89905
G1 X175.828 Y135.639 E16.62094
G1 X175.095 Y135.639 E16.65039
G1 X162.373 Y148.361 E17.37227
G1 X161.639 Y148.361 E17.40172
G1 X174.361 Y135.639 E18.12360
G1 X173.627 Y135.639 E18.15305
G1 X160.905 Y148.361 E18.87494
G1 X160.172 Y148.361 E18.90438
G1 X172.893 Y135.639 E19.62627
G1 X172.159 Y135.639 E19.65571
G1 X159.438 Y148.361 E20.37760
