; generated by Slic3r 1.3.0 on 2020-03-30 at 20:15:35

; external perimeters extrusion width = 0.44mm (2.38mm^3/s)
; perimeters extrusion width = 0.56mm (3.10mm^3/s)
; infill extrusion width = 0.50mm (4.57mm^3/s)
; solid infill extrusion width = 0.56mm (5.17mm^3/s)
; top infill extrusion width = 0.56mm (5.17mm^3/s)

M107
; -- TypeA START GCODE --
G21        ;metric values
G90        ;absolute positioning
G28     ;move to endstops
G29		;allows for auto-levelling
G1 Z15.0 F12000 ;move the platform down 15mm
G1 X150 Y5 F12000 ;center
M140 S50;Prep Heat Bed
M109 S210 ;Heat hotend to temp
M190 S50 ;Heat Bed to temp
G1 X150 Y5 Z0.3 ;move the platform to purge extrusion
G92 E0 ;zero the extruded length
G1 F200 X250 E30 ;extrude 30mm of feed stock
G92 E0 ;zero the extruded length again
G1 X150 Y150  Z25 F12000 ;recenter and begin
G1 F12000

; Filament gcode

G21 ; set units to millimeters
G90 ; use absolute coordinates
M82 ; use absolute distances for extrusion
G92 E0
G1 Z0.400 F6000.000
; LAYER: 0 
; LAYERZ: 0.4
G1 E-0.50000 F2400.00000
G92 E0
G1 X119.130 Y157.219 F6000.000
G1 E0.50000 F2400.00000
G1 F900
G1 X122.462 Y155.550 E1.07634
G1 X122.546 Y155.523 E1.09009
G1 X126.458 Y154.939 E1.70181
G1 X130.454 Y155.523 E2.32626
G1 X130.538 Y155.550 E2.34001
G1 X133.870 Y157.219 E2.91635
G1 X133.954 Y157.284 E2.93282
G1 X136.201 Y159.806 E3.45525
G1 X136.264 Y159.922 E3.47566
G1 X137.061 Y162.927 E3.95642
G1 X137.061 Y163.073 E3.97903
G1 X136.264 Y166.078 E4.45978
G1 X136.201 Y166.194 E4.48019
G1 X133.954 Y168.716 E5.00263
G1 X133.870 Y168.781 E5.01909
G1 X130.538 Y170.450 E5.59543
G1 X130.454 Y170.477 E5.60919
G1 X126.542 Y171.061 E6.22090
G1 X122.546 Y170.477 E6.84535
G1 X122.462 Y170.450 E6.85910
G1 X119.130 Y168.781 E7.43544
G1 X119.046 Y168.716 E7.45191
G1 X116.799 Y166.194 E7.97434
G1 X116.736 Y166.078 E7.99476
G1 X115.939 Y163.073 E8.47551
G1 X115.939 Y162.927 E8.49812
G1 X116.736 Y159.922 E8.97887
G1 X116.799 Y159.806 E8.99928
G1 X119.082 Y157.256 E9.52878
G1 E9.02878 F2400.00000
G92 E0
G1 X148.088 Y143.158 F6000.000
G1 E0.50000 F2400.00000
G1 F900
G1 X148.055 Y143.025 E0.52106
G1 X148.055 Y140.975 E0.83823
G1 X148.088 Y140.842 E0.85929
G1 X149.041 Y139.027 E1.17645
G1 X149.131 Y138.925 E1.19752
G1 X150.819 Y137.760 E1.51468
G1 X150.946 Y137.711 E1.53575
G1 X152.982 Y137.464 E1.85291
G1 X153.117 Y137.481 E1.87397
G1 X153.232 Y137.524 E1.89296
G1 X155.035 Y138.208 E2.19114
G1 X155.147 Y138.285 E2.21220
G1 X156.507 Y139.820 E2.52936
G1 X156.570 Y139.941 E2.55043
G1 X157.061 Y141.932 E2.86759
G1 X157.061 Y142.068 E2.88866
G1 X156.570 Y144.059 E3.20582
G1 X156.507 Y144.180 E3.22688
G1 X155.147 Y145.715 E3.54405
G1 X155.035 Y145.792 E3.56511
G1 X153.117 Y146.519 E3.88228
G1 X152.982 Y146.536 E3.90334
G1 X150.946 Y146.289 E4.22050
G1 X150.819 Y146.240 E4.24157
G1 X149.131 Y145.075 E4.55873
G1 X149.041 Y144.973 E4.57979
G1 X148.116 Y143.211 E4.88768
G1 E4.38768 F2400.00000
G92 E0
G1 X167.939 Y142.073 F6000.000
G1 E0.50000 F2400.00000
G1 F900
G1 X167.939 Y141.927 E0.52261
G1 X168.736 Y138.922 E1.00336
G1 X168.799 Y138.806 E1.02378
G1 X171.046 Y136.284 E1.54621
G1 X171.130 Y136.219 E1.56267
G1 X174.462 Y134.550 E2.13902
G1 X174.546 Y134.523 E2.15277
G1 X178.458 Y133.939 E2.76449
G1 X182.454 Y134.523 E3.38893
G1 X182.538 Y134.550 E3.40269
G1 X185.870 Y136.219 E3.97903
G1 X185.954 Y136.284 E3.99549
G1 X188.201 Y138.806 E4.51793
G1 X188.264 Y138.922 E4.53834
G1 X189.061 Y141.927 E5.01909
G1 X189.061 Y142.073 E5.04170
G1 X188.264 Y145.078 E5.52246
G1 X188.201 Y145.194 E5.54287
G1 X185.954 Y147.716 E6.06530
G1 X185.870 Y147.781 E6.08177
G1 X182.538 Y149.450 E6.65811
G1 X182.454 Y149.477 E6.67186
G1 X178.542 Y150.061 E7.28358
G1 X174.546 Y149.477 E7.90803
G1 X174.462 Y149.450 E7.92178
G1 X171.130 Y147.781 E8.49812
G1 X171.046 Y147.716 E8.51458
G1 X168.799 Y145.194 E9.03702
G1 X168.736 Y145.078 E9.05743
G1 X167.955 Y142.131 E9.52890
G1 E9.02890 F2400.00000
G92 E0
G1 X176.464 Y159.775 F6000.000
G1 E0.50000 F2400.00000
G1 F900
G1 X176.725 Y159.625 E0.54648
G1 X180.275 Y159.625 E1.09560
G1 X180.536 Y159.775 E1.14209
G1 X182.311 Y162.850 E1.69121
G1 X182.311 Y163.150 E1.73770
G1 X180.536 Y166.225 E2.28682
G1 X180.275 Y166.375 E2.33331
G1 X176.725 Y166.375 E2.88243
G1 X176.464 Y166.225 E2.92892
G1 X174.689 Y163.150 E3.47804
G1 X174.689 Y162.850 E3.52453
G1 X176.434 Y159.827 E4.06438
G1 E3.56438 F2400.00000
G92 E0
G1 X161.315 Y178.233 F6000.000
G1 E0.50000 F2400.00000
G1 F900
G1 X162.675 Y179.768 E0.81716
G1 X162.738 Y179.889 E0.83823
G1 X163.229 Y181.880 E1.15539
G1 X163.229 Y182.016 E1.17645
G1 X162.738 Y184.007 E1.49362
G1 X162.675 Y184.128 E1.51468
G1 X161.315 Y185.663 E1.83185
G1 X161.203 Y185.740 E1.85291
G1 X161.088 Y185.783 E1.87190
G1 X159.286 Y186.467 E2.17007
G1 X159.150 Y186.484 E2.19114
G1 X157.115 Y186.236 E2.50830
G1 X156.987 Y186.188 E2.52937
G1 X155.300 Y185.023 E2.84653
G1 X155.209 Y184.921 E2.86759
G1 X154.313 Y183.214 E3.16577
G1 X154.256 Y183.105 E3.18476
G1 X154.224 Y182.973 E3.20582
G1 X154.224 Y180.922 E3.52299
G1 X154.256 Y180.790 E3.54405
G1 X155.209 Y178.974 E3.86121
G1 X155.300 Y178.872 E3.88228
G1 X155.401 Y178.803 E3.90127
G1 X156.987 Y177.707 E4.19944
G1 X157.115 Y177.659 E4.22051
G1 X159.150 Y177.412 E4.53767
G1 X159.286 Y177.428 E4.55873
G1 X161.203 Y178.156 E4.87590
G1 X161.266 Y178.199 E4.88768
G1 E4.38768 F2400.00000
G92 E0
G1 X133.323 Y167.980 F6000.000
G1 E0.50000 F2400.00000
G1 F540
G1 X130.205 Y169.543 E0.88530
G1 X126.500 Y170.096 E1.29901
G1 X122.795 Y169.543 E1.71273
G1 X119.677 Y167.980 E2.09803
G1 X117.623 Y165.675 E2.43896
G1 X116.914 Y163.000 E2.74466
G1 X117.623 Y160.325 E3.05037
G1 X119.677 Y158.020 E3.39130
G1 X122.795 Y156.457 E3.77660
G1 X126.500 Y155.904 E4.19031
G1 X130.205 Y156.457 E4.60403
G1 X133.323 Y158.020 E4.98933
G1 X135.377 Y160.325 E5.33026
G1 X136.086 Y163.000 E5.63597
G1 X135.377 Y165.675 E5.94167
G1 X133.363 Y167.935 E6.27597
G1 X133.323 Y167.980 F6000.000
G1 X129.107 Y167.145 F6000.000
G1 F540
G1 X132.659 Y167.145 E6.66831
G1 X132.737 Y167.475 E6.70575
G1 X129.987 Y168.853 E7.04553
G1 X126.500 Y169.374 E7.43490
G1 X123.013 Y168.853 E7.82426
G1 X120.119 Y167.403 E8.18186
G1 X118.270 Y165.328 E8.48886
G1 X117.653 Y163.000 E8.75482
G1 X118.270 Y160.672 E9.02079
G1 X120.119 Y158.597 E9.32778
G1 X123.013 Y157.147 E9.68539
G1 X126.500 Y156.626 E10.07475
G1 X129.987 Y157.147 E10.46411
G1 X132.737 Y158.525 E10.80389
G1 X132.659 Y158.855 E10.84133
G1 X129.107 Y158.855 E11.23367
G1 X126.713 Y163.000 E11.76235
G1 X129.077 Y167.093 E12.28440
G1 X129.519 Y166.431 F6000.000
G1 F540
G1 X127.538 Y163.000 E12.72200
G1 X129.519 Y159.569 E13.15959
G1 X133.481 Y159.569 E13.59719
G1 X135.462 Y163.000 E14.03479
G1 X133.481 Y166.431 E14.47238
G1 X129.579 Y166.431 E14.90335
G1 X129.173 Y166.631 F6000.000
G1 X130.300 Y167.935 F6000.000
G1 F900
G1 X130.452 Y167.784 E14.92745
G1 X129.424 Y167.784 E15.04297
G1 X128.841 Y168.367 E15.13565
G1 X127.633 Y168.547 E15.27292
G1 X128.633 Y167.547 E15.43194
G1 X128.257 Y166.895 E15.51650
G1 X126.425 Y168.727 E15.80773
G1 X125.530 Y168.594 E15.90938
G1 X127.881 Y166.243 E16.28300
G1 X127.505 Y165.592 E16.36757
G1 X124.636 Y168.460 E16.82355
G1 X123.742 Y168.327 E16.92518
G1 X127.129 Y164.940 E17.46353
G1 X126.752 Y164.289 E17.54809
G1 X122.920 Y168.121 E18.15731
G1 X122.235 Y167.778 E18.24338
G1 X126.376 Y163.637 E18.90163
G1 X126.000 Y162.985 E18.98619
G1 X121.550 Y167.435 E19.69347
G1 X120.866 Y167.092 E19.77955
G1 X127.237 Y160.721 E20.79222
G1 X128.641 Y158.289 E21.10782
G1 X120.270 Y166.660 E22.43833
G1 X119.786 Y166.116 E22.52015
G1 X128.363 Y157.539 E23.88347
G1 X127.468 Y157.406 E23.98511
G1 X119.302 Y165.573 E25.28325
G1 X118.841 Y165.055 E25.36112
G1 X118.830 Y165.016 E25.36568
G1 X126.574 Y157.273 E26.59648
G1 X125.366 Y157.453 E26.73375
G1 X118.615 Y164.204 E27.80678
G1 X118.400 Y163.392 E27.90124
G1 X124.158 Y157.634 E28.81651
G1 X123.307 Y157.760 E28.91315
G1 X122.697 Y158.066 E28.98982
G1 X118.542 Y162.221 E29.65025
G1 X118.841 Y161.096 E29.78105
G1 X120.637 Y159.098 E30.08300
G1 E29.58300 F2400.00000
G92 E0
G1 X128.363 Y157.539 F6000.000
G1 E0.50000 F2400.00000
G1 F900
G1 X129.257 Y157.673 E0.60163
G1 X128.714 Y158.216 E0.68803
G1 X129.741 Y158.216 F6000.000
G1 F900
G1 X130.079 Y157.878 E0.74178
G1 X130.452 Y158.065 E0.78860
G1 X129.893 Y158.065 E0.85143
G1 X133.079 Y158.630 F6000.000
G1 F360
G1 X133.759 Y159.170 E0.86638
G1 F360
G1 X134.022 Y159.535 E0.87832
G1 F360
G1 X134.286 Y159.899 E0.89663
G1 F360
G1 X134.549 Y160.264 E0.92132
G1 F360
G1 X134.812 Y160.628 E0.95238
G1 X134.885 Y160.803 E0.96546
G1 F360
G1 X135.029 Y161.153 E0.98593
G1 F360
G1 X135.173 Y161.503 E1.00073
G1 F360
G1 X135.318 Y161.853 E1.00984
G1 F360
G1 X135.462 Y162.203 E1.01327
G1 X135.462 Y163.797 F6000.000
G1 F360
G1 X135.318 Y164.147 E1.01671
G1 F360
G1 X135.173 Y164.497 E1.02582
G1 F360
G1 X135.029 Y164.847 E1.04062
G1 F360
G1 X134.885 Y165.197 E1.06109
G1 F360
G1 X134.812 Y165.372 E1.07417
G1 X134.549 Y165.736 E1.10523
G1 F360
G1 X134.286 Y166.101 E1.12992
G1 F360
G1 X134.022 Y166.465 E1.14823
G1 F360
G1 X133.759 Y166.830 E1.16017
G1 F360
G1 X133.079 Y167.370 E1.17512
G1 Z0.400 F6000.000
; LAYER: 1 
; LAYERZ: 0.4
G1 E0.67512 F2400.00000
G92 E0
G1 X149.814 Y144.379 F6000.000
G1 E0.50000 F2400.00000
G1 F540
G1 X149.016 Y142.859 E0.68968
G1 X149.016 Y141.141 E0.87937
G1 X149.814 Y139.621 E1.06905
G1 X151.228 Y138.645 E1.25873
G1 X152.932 Y138.438 E1.44842
G1 X154.538 Y139.047 E1.63810
G1 X155.677 Y140.333 E1.82778
G1 X156.088 Y142.000 E2.01747
G1 X155.677 Y143.667 E2.20715
G1 X154.538 Y144.953 E2.39683
G1 X152.932 Y145.562 E2.58651
G1 X151.228 Y145.355 E2.77620
G1 X149.864 Y144.413 E2.95925
G1 X149.814 Y144.379 F6000.000
G1 X150.365 Y143.892 F6000.000
G1 F540
G1 X149.730 Y142.683 E3.11005
G1 X149.730 Y141.317 E3.26085
G1 X150.365 Y140.108 E3.41165
G1 X151.488 Y139.333 E3.56245
G1 X152.844 Y139.168 E3.71325
G1 X154.120 Y139.652 E3.86405
G1 X155.026 Y140.674 E4.01485
G1 X155.352 Y142.000 E4.16564
G1 X155.026 Y143.326 E4.31644
G1 X154.120 Y144.348 E4.46724
G1 X152.844 Y144.832 E4.61804
G1 X151.488 Y144.667 E4.76884
G1 X150.414 Y143.926 E4.91301
G1 X153.627 Y143.818 F6000.000
G1 F900
G1 X154.450 Y142.908 E5.07229
G1 X154.693 Y141.924 E5.20377
G1 X154.622 Y141.636 E5.24225
G1 X152.146 Y144.112 E5.69667
G1 X151.674 Y144.055 E5.75838
G1 X151.285 Y143.787 E5.81969
G1 X154.300 Y140.771 E6.37310
G1 X153.778 Y140.182 E6.47524
G1 X153.724 Y140.161 E6.48283
G1 X150.690 Y143.195 E7.03952
G1 X150.369 Y142.582 E7.12927
G1 X150.369 Y142.330 E7.16208
G1 X152.863 Y139.835 E7.61987
G1 X152.831 Y139.823 E7.62437
G1 X151.825 Y139.945 E7.75585
G1 X150.992 Y140.520 E7.88727
G1 X150.840 Y140.672 E7.91507
G1 Z0.400 F6000.000
; LAYER: 2 
; LAYERZ: 0.4
G1 E7.41507 F2400.00000
G92 E0
G1 X168.914 Y142.000 F6000.000
G1 E0.50000 F2400.00000
G1 F540
G1 X169.623 Y139.325 E0.80571
G1 X171.677 Y137.020 E1.14664
G1 X174.795 Y135.457 E1.53193
G1 X178.500 Y134.904 E1.94565
G1 X182.205 Y135.457 E2.35937
G1 X185.323 Y137.020 E2.74466
G1 X187.377 Y139.325 E3.08559
G1 X188.086 Y142.000 E3.39130
G1 X187.377 Y144.675 E3.69701
G1 X185.323 Y146.980 E4.03794
G1 X182.205 Y148.543 E4.42323
G1 X178.500 Y149.096 E4.83695
G1 X174.795 Y148.543 E5.25067
G1 X171.677 Y146.980 E5.63597
G1 X169.623 Y144.675 E5.97689
G1 X168.929 Y142.058 E6.27597
G1 X168.914 Y142.000 F6000.000
G1 E5.77597 F2400.00000
G92 E0
G1 X178.713 Y142.000 F6000.000
G1 E0.50000 F2400.00000
G1 F540
G1 X181.107 Y146.145 E1.02868
G1 X184.659 Y146.145 E1.42102
G1 X184.737 Y146.475 E1.45845
G1 X181.987 Y147.853 E1.79824
G1 X178.500 Y148.374 E2.18760
G1 X175.013 Y147.853 E2.57696
G1 X172.119 Y146.403 E2.93457
G1 X170.270 Y144.328 E3.24156
G1 X169.653 Y142.000 E3.50753
G1 X170.270 Y139.672 E3.77349
G1 X172.119 Y137.597 E4.08049
G1 X175.013 Y136.147 E4.43809
G1 X178.500 Y135.626 E4.82745
G1 X181.987 Y136.147 E5.21681
G1 X184.737 Y137.525 E5.55660
G1 X184.659 Y137.855 E5.59404
G1 X181.107 Y137.855 E5.98637
G1 X178.743 Y141.948 E6.50843
G1 X179.538 Y142.000 F6000.000
G1 F540
G1 X181.519 Y138.569 E6.94602
G1 X185.481 Y138.569 E7.38362
G1 X187.462 Y142.000 E7.82121
G1 X185.481 Y145.431 E8.25881
G1 X181.519 Y145.431 E8.69641
G1 X179.568 Y142.052 E9.12738
G1 X179.232 Y141.743 F6000.000
G1 X180.714 Y137.216 F6000.000
G1 F900
G1 X181.257 Y136.673 E9.21378
G1 X180.363 Y136.539 E9.31541
G1 X181.741 Y137.216 F6000.000
G1 F900
G1 X182.079 Y136.878 E9.36915
G1 X182.452 Y137.065 E9.41597
G1 X181.893 Y137.065 E9.47880
G1 E8.97880 F2400.00000
G92 E0
G1 X172.637 Y138.098 F6000.000
G1 E0.50000 F2400.00000
G1 F900
G1 X170.841 Y140.096 E0.80195
G1 X170.542 Y141.221 E0.93275
G1 X174.697 Y137.066 E1.59318
G1 X175.307 Y136.760 E1.66986
G1 X176.158 Y136.634 E1.76650
G1 X170.400 Y142.392 E2.68176
G1 X170.615 Y143.204 E2.77622
G1 X177.366 Y136.453 E3.84925
G1 X178.574 Y136.273 E3.98653
G1 X170.830 Y144.016 E5.21733
G1 X170.841 Y144.055 E5.22189
G1 X171.302 Y144.573 E5.29976
G1 X179.468 Y136.406 E6.59790
G1 X180.363 Y136.539 E6.69953
G1 X171.786 Y145.116 E8.06286
G1 X172.270 Y145.660 E8.14468
G1 X180.641 Y137.289 E9.47518
G1 X179.237 Y139.721 E9.79078
G1 X172.866 Y146.092 E10.80346
G1 X173.550 Y146.435 E10.88953
G1 X178.000 Y141.985 E11.59681
G1 X178.376 Y142.637 E11.68138
G1 X174.235 Y146.778 E12.33962
G1 X174.920 Y147.121 E12.42570
G1 X178.752 Y143.289 E13.03491
G1 X179.129 Y143.940 E13.11948
G1 X175.742 Y147.327 E13.65782
G1 X176.636 Y147.460 E13.75946
G1 X179.505 Y144.592 E14.21544
G1 X179.881 Y145.243 E14.30000
G1 X177.530 Y147.594 E14.67362
G1 X178.425 Y147.727 E14.77527
G1 X180.257 Y145.895 E15.06650
G1 X180.633 Y146.547 E15.15107
G1 X179.633 Y147.547 E15.31008
G1 X180.841 Y147.367 E15.44735
G1 X181.424 Y146.784 E15.54003
G1 X182.452 Y146.784 E15.65555
G1 X182.300 Y146.935 E15.67965
G1 X185.079 Y146.370 F6000.000
G1 F360
G1 X185.759 Y145.830 E15.69461
G1 F360
G1 X186.022 Y145.465 E15.70655
G1 F360
G1 X186.286 Y145.101 E15.72486
G1 F360
G1 X186.549 Y144.736 E15.74955
G1 F360
G1 X186.812 Y144.372 E15.78061
G1 X186.885 Y144.197 E15.79368
G1 F360
G1 X187.029 Y143.847 E15.81416
G1 F360
G1 X187.173 Y143.497 E15.82895
G1 F360
G1 X187.318 Y143.147 E15.83807
G1 F360
G1 X187.462 Y142.797 E15.84150
G1 X187.462 Y141.203 F6000.000
G1 F360
G1 X187.318 Y140.853 E15.84494
G1 F360
G1 X187.173 Y140.503 E15.85405
G1 F360
G1 X187.029 Y140.153 E15.86885
G1 F360
G1 X186.885 Y139.803 E15.88932
G1 F360
G1 X186.812 Y139.628 E15.90240
G1 X186.549 Y139.264 E15.93346
G1 F360
G1 X186.286 Y138.899 E15.95814
G1 F360
G1 X186.022 Y138.535 E15.97646
G1 F360
G1 X185.759 Y138.170 E15.98839
G1 F360
G1 X185.079 Y137.630 E16.00335
G1 Z0.400 F6000.000
; LAYER: 3 
; LAYERZ: 0.4
G1 E15.50335 F2400.00000
G92 E0
G1 X179.894 Y160.585 F6000.000
G1 E0.50000 F2400.00000
G1 F540
G1 X181.288 Y163.000 E0.80795
G1 X179.894 Y165.415 E1.11590
G1 X177.106 Y165.415 E1.42386
G1 X175.712 Y163.000 E1.73181
G1 X177.106 Y160.585 E2.03976
G1 X179.834 Y160.585 E2.34109
G1 X179.894 Y160.985 F6000.000
G1 X179.482 Y161.300 F6000.000
G1 F540
G1 X180.463 Y163.000 E2.55795
G1 X179.482 Y164.700 E2.77482
G1 X177.518 Y164.700 E2.99169
G1 X176.537 Y163.000 E3.20856
G1 X177.518 Y161.300 E3.42543
G1 X179.422 Y161.300 E3.63567
G1 X178.006 Y161.938 F6000.000
G1 F900
G1 X177.855 Y162.090 E3.66003
G1 X177.285 Y163.076 E3.78914
G1 X177.512 Y163.469 E3.84065
G1 X179.044 Y161.938 E4.08621
G1 X179.145 Y161.938 E4.09774
G1 X179.488 Y162.531 E4.17540
G1 X177.956 Y164.062 E4.42097
G1 X178.994 Y164.062 F6000.000
G1 F900
G1 X179.145 Y163.911 E4.44526
G1 Z0.400 F6000.000
; LAYER: 4 
; LAYERZ: 0.4
G1 E3.94526 F2400.00000
G92 E0
G1 X161.327 Y179.696 F6000.000
G1 E0.50000 F2400.00000
G1 F540
G1 X161.845 Y180.280 E0.58628
G1 X162.256 Y181.948 E0.77596
G1 X161.845 Y183.615 E0.96565
G1 X160.707 Y184.901 E1.15533
G1 X159.101 Y185.510 E1.34501
G1 X157.396 Y185.303 E1.53470
G1 X155.983 Y184.327 E1.72438
G1 X155.185 Y182.806 E1.91406
G1 X155.185 Y181.089 E2.10374
G1 X155.983 Y179.568 E2.29343
G1 X157.396 Y178.593 E2.48311
G1 X159.101 Y178.386 E2.67279
G1 X160.707 Y178.995 E2.86248
G1 X161.288 Y179.651 E2.95925
G1 X161.241 Y180.086 F6000.000
