; generated by Slic3r 1.3.0 on 2020-03-22 at 17:12:40

; external perimeters extrusion width = 0.44mm (2.38mm^3/s)
; perimeters extrusion width = 0.56mm (3.10mm^3/s)
; infill extrusion width = 0.50mm (4.57mm^3/s)
; solid infill extrusion width = 0.56mm (5.17mm^3/s)
; top infill extrusion width = 0.56mm (5.17mm^3/s)

M107
; -- TypeA START GCODE --
G21        ;metric values
G90        ;absolute positioning
G28     ;move to endstops
G29		;allows for auto-levelling
G1 Z15.0 F12000 ;move the platform down 15mm
G1 X150 Y5 F12000 ;center
M140 S50;Prep Heat Bed
M109 S210 ;Heat hotend to temp
M190 S50 ;Heat Bed to temp
G1 X150 Y5 Z0.3 ;move the platform to purge extrusion
G92 E0 ;zero the extruded length
G1 F200 X250 E30 ;extrude 30mm of feed stock
G92 E0 ;zero the extruded length again
G1 X150 Y150  Z25 F12000 ;recenter and begin
G1 F12000

; Filament gcode

G21 ; set units to millimeters
G90 ; use absolute coordinates
M82 ; use absolute distances for extrusion
G92 E0
G1 Z0.400 F6000.000
; LAYER: 0 
; LAYERZ: 0.4
G1 E-0.50000 F2400.00000
G92 E0
G1 X141.032 Y127.811 F6000.000
G1 E0.50000 F2400.00000
G1 F900
G1 X140.754 Y128.431 E0.60289
G1 X142.201 Y130.056 E0.93222
G1 X142.264 Y130.172 E0.95219
G1 X143.061 Y133.177 E1.42260
G1 X143.061 Y133.323 E1.44473
G1 X142.264 Y136.328 E1.91514
G1 X142.201 Y136.444 E1.93512
G1 X139.954 Y138.966 E2.44632
G1 X139.870 Y139.031 E2.46243
G1 X136.538 Y140.700 E3.02637
G1 X136.454 Y140.727 E3.03983
G1 X132.458 Y141.311 E3.65085
G1 X128.546 Y140.727 E4.24941
G1 X128.462 Y140.700 E4.26287
G1 X125.130 Y139.031 E4.82681
G1 X125.046 Y138.966 E4.84292
G1 X122.799 Y136.444 E5.35412
G1 X122.736 Y136.328 E5.37410
G1 X121.939 Y133.323 E5.84451
G1 X121.939 Y133.177 E5.86664
G1 X122.736 Y130.172 E6.33705
G1 X122.799 Y130.056 E6.35702
G1 X125.046 Y127.534 E6.86822
G1 X125.130 Y127.469 E6.88433
G1 X128.462 Y125.800 E7.44828
G1 X128.546 Y125.773 E7.46174
G1 X131.685 Y125.305 E7.94189
G1 X131.939 Y125.009 E8.00091
G1 X131.939 Y102.018 E11.48030
G1 X132.268 Y101.689 E11.55061
G1 X182.732 Y101.689 E19.18760
G1 X183.061 Y102.018 E19.25791
G1 X183.061 Y127.482 E23.11156
G1 X182.732 Y127.811 E23.18188
G1 X141.092 Y127.811 E29.48345
G1 E28.98345 F2400.00000
G92 E0
G1 X133.117 Y159.731 F6000.000
G1 E0.50000 F2400.00000
G1 F900
G1 X135.035 Y160.458 E0.81035
G1 X135.147 Y160.535 E0.83096
G1 X136.507 Y162.070 E1.14130
G1 X136.570 Y162.191 E1.16191
G1 X137.061 Y164.182 E1.47225
G1 X137.061 Y164.318 E1.49286
G1 X136.570 Y166.309 E1.80321
G1 X136.507 Y166.430 E1.82382
G1 X135.147 Y167.965 E2.13416
G1 X135.035 Y168.042 E2.15477
G1 X133.117 Y168.769 E2.46512
G1 X132.982 Y168.786 E2.48573
G1 X130.946 Y168.539 E2.79607
G1 X130.819 Y168.490 E2.81668
G1 X129.131 Y167.325 E3.12702
G1 X129.041 Y167.223 E3.14763
G1 X128.088 Y165.408 E3.45798
G1 X128.055 Y165.275 E3.47859
G1 X128.055 Y163.225 E3.78893
G1 X128.088 Y163.092 E3.80954
G1 X129.041 Y161.277 E4.11989
G1 X129.131 Y161.175 E4.14050
G1 X130.819 Y160.010 E4.45084
G1 X130.946 Y159.961 E4.47145
G1 X132.982 Y159.714 E4.78179
G1 X133.058 Y159.723 E4.79332
G1 E4.29332 F2400.00000
G92 E0
G1 X132.542 Y187.189 F6000.000
G1 E0.50000 F2400.00000
G1 F900
G1 X136.454 Y187.773 E1.09856
G1 X136.538 Y187.800 E1.11202
G1 X139.870 Y189.469 E1.67597
G1 X139.954 Y189.534 E1.69208
G1 X142.201 Y192.056 E2.20327
G1 X142.264 Y192.172 E2.22325
G1 X143.061 Y195.177 E2.69366
G1 X143.061 Y195.323 E2.71579
G1 X142.264 Y198.328 E3.18620
G1 X142.201 Y198.444 E3.20618
G1 X139.954 Y200.966 E3.71737
G1 X139.870 Y201.031 E3.73348
G1 X136.538 Y202.700 E4.29743
G1 X136.454 Y202.727 E4.31089
G1 X132.458 Y203.311 E4.92191
G1 X128.546 Y202.727 E5.52047
G1 X128.462 Y202.700 E5.53393
G1 X125.130 Y201.031 E6.09787
G1 X125.046 Y200.966 E6.11398
G1 X122.799 Y198.444 E6.62518
G1 X122.736 Y198.328 E6.64516
G1 X121.939 Y195.323 E7.11557
G1 X121.939 Y195.177 E7.13770
G1 X122.736 Y192.172 E7.60811
G1 X122.799 Y192.056 E7.62808
G1 X125.046 Y189.534 E8.13928
G1 X125.130 Y189.469 E8.15539
G1 X128.462 Y187.800 E8.71934
G1 X128.546 Y187.773 E8.73279
G1 X132.482 Y187.189 E9.33483
G1 E8.83483 F2400.00000
G92 E0
G1 X182.100 Y126.850 F6000.000
G1 E0.50000 F2400.00000
G1 F540
G1 X132.900 Y126.850 E5.81735
G1 X132.900 Y102.650 E8.43280
G1 X182.100 Y102.650 E13.75016
G1 X182.100 Y126.790 E16.35912
G1 X181.705 Y126.789 F6000.000
G1 X181.386 Y126.136 F6000.000
G1 F540
G1 X133.614 Y126.136 E21.52210
G1 X133.614 Y103.364 E23.98318
G1 X181.386 Y103.364 E29.14617
G1 X181.386 Y126.076 E31.60077
G1 X180.596 Y125.497 F6000.000
G1 F900
G1 X180.747 Y125.346 E31.62395
G1 X180.747 Y124.336 E31.73316
G1 X179.586 Y125.497 E31.91080
G1 X178.575 Y125.497 E32.02001
G1 X180.747 Y123.325 E32.35209
G1 X180.747 Y122.315 E32.46131
G1 X177.565 Y125.497 E32.94784
G1 X176.555 Y125.497 E33.05705
G1 X180.747 Y121.305 E33.69804
G1 X180.747 Y120.295 E33.80725
G1 X175.545 Y125.497 E34.60269
G1 X174.534 Y125.497 E34.71190
G1 X180.747 Y119.284 E35.66179
G1 X180.747 Y118.274 E35.77100
G1 X173.524 Y125.497 E36.87534
G1 X172.514 Y125.497 E36.98456
G1 X180.747 Y117.264 E38.24334
G1 X180.747 Y116.254 E38.35256
G1 X171.504 Y125.497 E39.76580
G1 X170.493 Y125.497 E39.87501
G1 X180.747 Y115.243 E41.44270
G1 X180.747 Y114.233 E41.55191
G1 X169.483 Y125.497 E43.27406
G1 X168.473 Y125.497 E43.38327
G1 X180.747 Y113.223 E45.25986
G1 X180.747 Y112.213 E45.36907
G1 X167.463 Y125.497 E47.40012
G1 X166.452 Y125.497 E47.50933
G1 X180.747 Y111.202 E49.69482
G1 X180.747 Y110.192 E49.80404
G1 X165.442 Y125.497 E52.14398
G1 X164.432 Y125.497 E52.25319
G1 X180.747 Y109.182 E54.74759
G1 X180.747 Y108.172 E54.85680
G1 X163.422 Y125.497 E57.50565
G1 X162.411 Y125.497 E57.61486
G1 X180.747 Y107.161 E60.41816
G1 X180.747 Y106.151 E60.52737
G1 X161.401 Y125.497 E63.48512
G1 X160.391 Y125.497 E63.59433
G1 X180.747 Y105.141 E66.70653
G1 X180.747 Y104.131 E66.81574
G1 X159.381 Y125.497 E70.08239
G1 X158.370 Y125.497 E70.19160
G1 X179.865 Y104.003 E73.47783
G1 X178.855 Y104.003 E73.58705
G1 X157.360 Y125.497 E76.87328
G1 X156.350 Y125.497 E76.98249
G1 X177.845 Y104.003 E80.26873
G1 X176.835 Y104.003 E80.37794
G1 X155.340 Y125.497 E83.66417
G1 X154.329 Y125.497 E83.77338
G1 X175.824 Y104.003 E87.05962
G1 X174.814 Y104.003 E87.16883
G1 X153.319 Y125.497 E90.45506
G1 X152.309 Y125.497 E90.56427
G1 X173.804 Y104.003 E93.85051
G1 X172.794 Y104.003 E93.95972
G1 X151.299 Y125.497 E97.24595
G1 X150.288 Y125.497 E97.35516
G1 X171.783 Y104.003 E100.64140
G1 X170.773 Y104.003 E100.75061
G1 X149.278 Y125.497 E104.03684
G1 X148.268 Y125.497 E104.14606
G1 X169.763 Y104.003 E107.43229
G1 X168.753 Y104.003 E107.54150
G1 X147.258 Y125.497 E110.82773
G1 X146.247 Y125.497 E110.93695
G1 X167.742 Y104.003 E114.22318
G1 X166.732 Y104.003 E114.33239
G1 X145.237 Y125.497 E117.61862
G1 X144.227 Y125.497 E117.72784
G1 X165.722 Y104.003 E121.01407
G1 X164.712 Y104.003 E121.12328
G1 X143.217 Y125.497 E124.40951
G1 X142.206 Y125.497 E124.51873
G1 X163.701 Y104.003 E127.80496
G1 X162.691 Y104.003 E127.91417
G1 X141.196 Y125.497 E131.20040
G1 X140.186 Y125.497 E131.30962
G1 X161.681 Y104.003 E134.59585
G1 X160.671 Y104.003 E134.70506
G1 X139.176 Y125.497 E137.99130
G1 X138.165 Y125.497 E138.10051
G1 X159.660 Y104.003 E141.38674
G1 X158.650 Y104.003 E141.49595
G1 X137.155 Y125.497 E144.78219
G1 X136.145 Y125.497 E144.89140
G1 X157.640 Y104.003 E148.17763
G1 X156.630 Y104.003 E148.28684
G1 X135.135 Y125.497 E151.57308
G1 X134.253 Y125.497 E151.66844
G1 X134.253 Y125.369 E151.68229
G1 X155.619 Y104.003 E154.94894
G1 X154.609 Y104.003 E155.05815
G1 X134.253 Y124.359 E158.17036
G1 X134.253 Y123.349 E158.27957
G1 X153.599 Y104.003 E161.23732
G1 X152.589 Y104.003 E161.34653
G1 X134.253 Y122.339 E164.14983
G1 X134.253 Y121.328 E164.25905
G1 X151.578 Y104.003 E166.90789
G1 X150.568 Y104.003 E167.01711
G1 X134.253 Y120.318 E169.51151
G1 X134.253 Y119.308 E169.62072
G1 X149.558 Y104.003 E171.96067
G1 X148.548 Y104.003 E172.06988
G1 X134.253 Y118.298 E174.25538
G1 X134.253 Y117.287 E174.36459
G1 X147.537 Y104.003 E176.39564
G1 X146.527 Y104.003 E176.50485
G1 X134.253 Y116.277 E178.38144
G1 X134.253 Y115.267 E178.49066
G1 X145.517 Y104.003 E180.21280
G1 X144.507 Y104.003 E180.32201
G1 X134.253 Y114.257 E181.88971
G1 X134.253 Y113.246 E181.99892
G1 X143.496 Y104.003 E183.41216
G1 X142.486 Y104.003 E183.52138
G1 X134.253 Y112.236 E184.78017
G1 X134.253 Y111.226 E184.88938
G1 X141.476 Y104.003 E185.99373
G1 X140.466 Y104.003 E186.10294
G1 X134.253 Y110.216 E187.05283
G1 X134.253 Y109.205 E187.16204
G1 X139.455 Y104.003 E187.95748
G1 X138.445 Y104.003 E188.06670
G1 X134.253 Y108.195 E188.70769
G1 X134.253 Y107.185 E188.81690
G1 X137.435 Y104.003 E189.30344
G1 X136.425 Y104.003 E189.41265
G1 X134.253 Y106.175 E189.74474
G1 X134.253 Y105.164 E189.85395
G1 X135.414 Y104.003 E190.03159
G1 X134.404 Y104.003 E190.14080
G1 X134.253 Y104.154 E190.16396
G1 Z0.400 F6000.000
; LAYER: 1 
; LAYERZ: 0.4
G1 E189.66396 F2400.00000
G92 E0
G1 X132.500 Y126.154 F6000.000
G1 E0.50000 F2400.00000
G1 F540
G1 X136.205 Y126.707 E0.90482
G1 X139.323 Y128.270 E1.28183
G1 X141.377 Y130.575 E1.61543
G1 X142.086 Y133.250 E1.91456
G1 X141.377 Y135.925 E2.21370
G1 X139.323 Y138.230 E2.54729
G1 X136.205 Y139.793 E2.92430
G1 X132.500 Y140.346 E3.32912
G1 X128.795 Y139.793 E3.73394
G1 X125.677 Y138.230 E4.11095
G1 X123.623 Y135.925 E4.44455
G1 X122.914 Y133.250 E4.74368
G1 X123.623 Y130.575 E5.04282
G1 X125.677 Y128.270 E5.37641
G1 X128.795 Y126.707 E5.75343
G1 X132.441 Y126.163 E6.15176
G1 X132.500 Y126.154 F6000.000
G1 X135.107 Y129.105 F6000.000
G1 F540
G1 X132.713 Y133.250 E6.66907
G1 X135.107 Y137.395 E7.18638
G1 X138.659 Y137.395 E7.57028
G1 X138.737 Y137.725 E7.60691
G1 X135.987 Y139.103 E7.93939
G1 X132.500 Y139.624 E8.32038
G1 X129.013 Y139.103 E8.70137
G1 X126.119 Y137.653 E9.05128
G1 X124.270 Y135.578 E9.35167
G1 X123.653 Y133.250 E9.61192
G1 X124.270 Y130.922 E9.87216
G1 X126.119 Y128.847 E10.17256
G1 X129.013 Y127.397 E10.52247
G1 X132.500 Y126.876 E10.90346
G1 X135.987 Y127.397 E11.28445
G1 X138.737 Y128.775 E11.61692
G1 X138.659 Y129.105 E11.65356
G1 X135.167 Y129.105 E12.03097
G1 X135.519 Y129.819 F6000.000
G1 F540
G1 X139.481 Y129.819 E12.45916
G1 X141.462 Y133.250 E12.88734
G1 X139.481 Y136.681 E13.31553
G1 X135.519 Y136.681 E13.74371
G1 X133.538 Y133.250 E14.17190
G1 X135.489 Y129.871 E14.59360
G1 X135.524 Y129.419 F6000.000
G1 X135.741 Y128.466 F6000.000
G1 F900
G1 X136.079 Y128.128 E14.64619
G1 X136.452 Y128.315 E14.69200
G1 X135.893 Y128.315 E14.75348
G1 X134.714 Y128.466 F6000.000
G1 F900
G1 X135.257 Y127.923 E14.83802
G1 X134.363 Y127.789 E14.93747
G1 E14.43747 F2400.00000
G92 E0
G1 X126.637 Y129.348 F6000.000
G1 E0.50000 F2400.00000
G1 F900
G1 X124.841 Y131.346 E0.79546
G1 X124.542 Y132.471 E0.92345
G1 X128.697 Y128.316 E1.56967
G1 X129.307 Y128.010 E1.64470
G1 X130.158 Y127.884 E1.73926
G1 X124.400 Y133.642 E2.63484
G1 X124.615 Y134.454 E2.72727
G1 X131.366 Y127.703 E3.77723
G1 X132.574 Y127.523 E3.91155
G1 X124.830 Y135.266 E5.11588
G1 X124.841 Y135.305 E5.12034
G1 X125.302 Y135.823 E5.19654
G1 X133.468 Y127.656 E6.46676
G1 X134.363 Y127.789 E6.56621
G1 X125.786 Y136.366 E7.90021
G1 X126.270 Y136.910 E7.98027
G1 X134.641 Y128.539 E9.28217
G1 X133.237 Y130.971 E9.59098
G1 X126.866 Y137.342 E10.58188
G1 X127.550 Y137.685 E10.66610
G1 X132.000 Y133.235 E11.35817
G1 X132.376 Y133.887 E11.44092
G1 X128.235 Y138.028 E12.08501
G1 X128.920 Y138.371 E12.16923
G1 X132.752 Y134.539 E12.76535
G1 X133.129 Y135.190 E12.84809
G1 X129.742 Y138.577 E13.37486
G1 X130.636 Y138.710 E13.47431
G1 X133.505 Y135.842 E13.92048
G1 X133.881 Y136.493 E14.00323
G1 X131.530 Y138.844 E14.36881
G1 X132.425 Y138.977 E14.46828
G1 X134.257 Y137.145 E14.75324
G1 X134.633 Y137.797 E14.83599
G1 X133.633 Y138.797 E14.99158
G1 X134.841 Y138.617 E15.12591
G1 X135.424 Y138.034 E15.21659
G1 X136.452 Y138.034 E15.32962
G1 X136.300 Y138.185 E15.35321
G1 X139.079 Y137.620 F6000.000
G1 F360
G1 X139.759 Y137.080 E15.36784
G1 F360
G1 X140.022 Y136.715 E15.37953
G1 F360
G1 X140.286 Y136.351 E15.39744
G1 F360
G1 X140.549 Y135.986 E15.42160
G1 F360
G1 X140.812 Y135.622 E15.45199
G1 X140.885 Y135.447 E15.46479
G1 F360
G1 X141.029 Y135.097 E15.48482
G1 F360
G1 X141.173 Y134.747 E15.49930
G1 F360
G1 X141.318 Y134.397 E15.50822
G1 F360
G1 X141.462 Y134.047 E15.51158
G1 X141.462 Y132.453 F6000.000
G1 F360
G1 X141.318 Y132.103 E15.51494
G1 F360
G1 X141.173 Y131.753 E15.52386
G1 F360
G1 X141.029 Y131.403 E15.53833
G1 F360
G1 X140.885 Y131.053 E15.55837
G1 F360
G1 X140.812 Y130.878 E15.57116
G1 X140.549 Y130.514 E15.60155
G1 F360
G1 X140.286 Y130.149 E15.62571
G1 F360
G1 X140.022 Y129.785 E15.64363
G1 F360
G1 X139.759 Y129.420 E15.65531
G1 F360
G1 X139.079 Y128.880 E15.66994
G1 Z0.400 F6000.000
; LAYER: 2 
; LAYERZ: 0.4
G1 E15.16994 F2400.00000
G92 E0
G1 X132.932 Y160.688 F6000.000
G1 E0.50000 F2400.00000
G1 F540
G1 X134.538 Y161.297 E0.68560
G1 X135.677 Y162.583 E0.87121
G1 X136.088 Y164.250 E1.05681
G1 X135.677 Y165.917 E1.24242
G1 X134.538 Y167.203 E1.42802
G1 X132.932 Y167.812 E1.61362
G1 X131.228 Y167.605 E1.79923
G1 X129.814 Y166.629 E1.98483
G1 X129.016 Y165.109 E2.17043
G1 X129.016 Y163.391 E2.35604
G1 X129.814 Y161.871 E2.54164
G1 X131.228 Y160.895 E2.72725
G1 X132.873 Y160.695 E2.90637
G1 X132.932 Y160.688 F6000.000
G1 X132.844 Y161.418 F6000.000
G1 F540
G1 X134.120 Y161.902 E3.05392
G1 X135.026 Y162.924 E3.20148
G1 X135.352 Y164.250 E3.34903
G1 X135.026 Y165.576 E3.49659
G1 X134.120 Y166.598 E3.64414
G1 X132.844 Y167.082 E3.79170
G1 X131.488 Y166.917 E3.93926
G1 X130.365 Y166.142 E4.08681
G1 X129.730 Y164.933 E4.23437
G1 X129.730 Y163.567 E4.38192
G1 X130.365 Y162.358 E4.52948
G1 X131.488 Y161.583 E4.67704
G1 X132.784 Y161.426 E4.81811
G1 X130.840 Y162.922 F6000.000
G1 F900
G1 X130.992 Y162.770 E4.84531
G1 X131.825 Y162.195 E4.97390
G1 X132.831 Y162.073 E5.10256
G1 X132.863 Y162.085 E5.10696
G1 X130.369 Y164.580 E5.55491
G1 X130.369 Y164.832 E5.58701
G1 X130.690 Y165.445 E5.67482
G1 X133.724 Y162.411 E6.21955
G1 X133.778 Y162.432 E6.22697
G1 X134.300 Y163.021 E6.32692
G1 X131.285 Y166.037 E6.86843
G1 X131.674 Y166.305 E6.92842
G1 X132.146 Y166.362 E6.98880
G1 X134.622 Y163.886 E7.43344
G1 X134.693 Y164.174 E7.47110
G1 X134.450 Y165.158 E7.59976
G1 X133.627 Y166.068 E7.75561
G1 Z0.400 F6000.000
; LAYER: 3 
; LAYERZ: 0.4
G1 E7.25561 F2400.00000
G92 E0
G1 X132.500 Y188.154 F6000.000
G1 E0.50000 F2400.00000
G1 F540
G1 X136.205 Y188.707 E0.90482
G1 X139.323 Y190.270 E1.28183
G1 X141.377 Y192.575 E1.61543
G1 X142.086 Y195.250 E1.91456
G1 X141.377 Y197.925 E2.21370
G1 X139.323 Y200.230 E2.54729
G1 X136.205 Y201.793 E2.92430
G1 X132.500 Y202.346 E3.32912
G1 X128.795 Y201.793 E3.73394
G1 X125.677 Y200.230 E4.11095
G1 X123.623 Y197.925 E4.44455
G1 X122.914 Y195.250 E4.74368
G1 X123.623 Y192.575 E5.04282
G1 X125.677 Y190.270 E5.37641
G1 X128.795 Y188.707 E5.75343
G1 X132.441 Y188.163 E6.15176
G1 X132.500 Y188.154 F6000.000
G1 X135.107 Y191.105 F6000.000
G1 F540
G1 X132.713 Y195.250 E6.66907
G1 X135.107 Y199.395 E7.18638
G1 X138.659 Y199.395 E7.57028
G1 X138.737 Y199.725 E7.60691
G1 X135.987 Y201.103 E7.93939
G1 X132.500 Y201.624 E8.32038
G1 X129.013 Y201.103 E8.70137
G1 X126.119 Y199.653 E9.05128
G1 X124.270 Y197.578 E9.35167
G1 X123.653 Y195.250 E9.61192
G1 X124.270 Y192.922 E9.87216
G1 X126.119 Y190.847 E10.17256
G1 X129.013 Y189.397 E10.52247
G1 X132.500 Y188.876 E10.90346
G1 X135.987 Y189.397 E11.28445
G1 X138.737 Y190.775 E11.61692
G1 X138.659 Y191.105 E11.65356
G1 X135.167 Y191.105 E12.03097
G1 X135.519 Y191.819 F6000.000
G1 F540
G1 X139.481 Y191.819 E12.45916
G1 X141.462 Y195.250 E12.88734
G1 X139.481 Y198.681 E13.31553
G1 X135.519 Y198.681 E13.74371
G1 X133.538 Y195.250 E14.17190
G1 X135.489 Y191.871 E14.59360
G1 X135.524 Y191.419 F6000.000
G1 X135.741 Y190.466 F6000.000
G1 F900
G1 X136.079 Y190.128 E14.64619
G1 X136.452 Y190.315 E14.69200
G1 X135.893 Y190.315 E14.75348
G1 X134.714 Y190.466 F6000.000
G1 F900
G1 X135.257 Y189.923 E14.83802
G1 X134.363 Y189.789 E14.93747
G1 E14.43747 F2400.00000
G92 E0
G1 X126.637 Y191.348 F6000.000
G1 E0.50000 F2400.00000
G1 F900
