; generated by Slic3r 1.3.0 on 2020-03-24 at 19:30:03

; external perimeters extrusion width = 0.44mm (2.38mm^3/s)
; perimeters extrusion width = 0.56mm (3.10mm^3/s)
; infill extrusion width = 0.50mm (4.57mm^3/s)
; solid infill extrusion width = 0.56mm (5.17mm^3/s)
; top infill extrusion width = 0.56mm (5.17mm^3/s)

M107
; -- TypeA START GCODE --
G21        ;metric values
G90        ;absolute positioning
G28     ;move to endstops
G29		;allows for auto-levelling
G1 Z15.0 F12000 ;move the platform down 15mm
G1 X150 Y5 F12000 ;center
M140 S50;Prep Heat Bed
M109 S210 ;Heat hotend to temp
M190 S50 ;Heat Bed to temp
G1 X150 Y5 Z0.3 ;move the platform to purge extrusion
G92 E0 ;zero the extruded length
G1 F200 X250 E30 ;extrude 30mm of feed stock
G92 E0 ;zero the extruded length again
G1 X150 Y150  Z25 F12000 ;recenter and begin
G1 F12000

; Filament gcode

G21 ; set units to millimeters
G90 ; use absolute coordinates
M82 ; use absolute distances for extrusion
G92 E0
G1 Z0.400 F6000.000
; LAYER: 0 
; LAYERZ: 0.4
G1 E-0.50000 F2400.00000
G92 E0
G1 X127.115 Y114.084 F6000.000
G1 E0.50000 F2400.00000
G1 F900
G1 X127.368 Y113.943 E0.54480
G1 X128.301 Y113.943 E0.68914
G1 X128.555 Y114.084 E0.73395
G1 X129.333 Y115.329 E0.96111
G1 X129.781 Y116.299 E1.12635
G1 X130.011 Y117.018 E1.24307
G1 X130.652 Y117.119 E1.34343
G1 X131.093 Y116.507 E1.46015
G1 X131.819 Y115.723 E1.62538
G1 X132.944 Y114.779 E1.85255
G1 X133.229 Y114.724 E1.89735
G1 X134.116 Y115.012 E2.04170
G1 X134.314 Y115.224 E2.08650
G1 X134.663 Y116.614 E2.30818
G1 X134.796 Y117.710 E2.47891
G1 X134.793 Y118.465 E2.59563
G1 X135.371 Y118.759 E2.69598
G1 X135.979 Y118.313 E2.81270
G1 X136.912 Y117.792 E2.97794
G1 X138.274 Y117.242 E3.20510
G1 X138.561 Y117.277 E3.24990
G1 X139.316 Y117.826 E3.39424
G1 X139.439 Y118.088 E3.43904
G1 X139.341 Y119.518 E3.66071
G1 X139.129 Y120.601 E3.83144
G1 X138.893 Y121.318 E3.94817
G1 X139.351 Y121.777 E4.04852
G1 X140.068 Y121.540 E4.16524
G1 X141.116 Y121.333 E4.33049
G1 X142.581 Y121.231 E4.55764
G1 X142.844 Y121.353 E4.60245
G1 X143.392 Y122.108 E4.74679
G1 X143.428 Y122.396 E4.79159
G1 X142.893 Y123.725 E5.01326
G1 X142.357 Y124.690 E5.18398
G1 X141.910 Y125.299 E5.30071
G1 X142.205 Y125.877 E5.40106
G1 X142.959 Y125.874 E5.51778
G1 X144.055 Y126.007 E5.68850
G1 X145.446 Y126.355 E5.91019
G1 X145.657 Y126.553 E5.95499
G1 X145.946 Y127.441 E6.09933
G1 X145.891 Y127.725 E6.14414
G1 X144.946 Y128.850 E6.37131
G1 X144.163 Y129.576 E6.53654
G1 X143.550 Y130.017 E6.65326
G1 X143.652 Y130.658 E6.75361
G1 X144.370 Y130.888 E6.87034
G1 X145.371 Y131.353 E7.04106
G1 X146.586 Y132.115 E7.26274
G1 X146.726 Y132.368 E7.30754
G1 X146.726 Y133.301 E7.45189
G1 X146.586 Y133.555 E7.49669
G1 X145.340 Y134.333 E7.72385
G1 X144.370 Y134.781 E7.88909
G1 X143.652 Y135.011 E8.00581
G1 X143.550 Y135.652 E8.10617
G1 X144.163 Y136.093 E8.22289
G1 X144.971 Y136.845 E8.39361
G1 X145.891 Y137.944 E8.61529
G1 X145.946 Y138.229 E8.66009
G1 X145.657 Y139.116 E8.80444
G1 X145.446 Y139.314 E8.84924
G1 X144.020 Y139.669 E9.07641
G1 X142.959 Y139.796 E9.24165
G1 X142.205 Y139.793 E9.35837
G1 X141.910 Y140.371 E9.45872
G1 X142.357 Y140.979 E9.57545
G1 X142.877 Y141.912 E9.74068
G1 X143.428 Y143.274 E9.96784
G1 X143.392 Y143.561 E10.01264
G1 X142.844 Y144.316 E10.15698
G1 X142.581 Y144.439 E10.20179
G1 X141.151 Y144.341 E10.42346
G1 X140.068 Y144.129 E10.59418
G1 X139.351 Y143.893 E10.71091
G1 X138.893 Y144.351 E10.81126
G1 X139.129 Y145.068 E10.92799
G1 X139.336 Y146.116 E11.09323
G1 X139.439 Y147.581 E11.32039
G1 X139.316 Y147.844 E11.36519
G1 X138.561 Y148.392 E11.50953
G1 X138.274 Y148.428 E11.55433
G1 X136.944 Y147.893 E11.77601
G1 X135.979 Y147.357 E11.94673
G1 X135.371 Y146.910 E12.06345
G1 X134.793 Y147.205 E12.16380
G1 X134.796 Y147.959 E12.28052
G1 X134.663 Y149.055 E12.45125
G1 X134.314 Y150.446 E12.67293
G1 X134.116 Y150.657 E12.71773
G1 X133.229 Y150.946 E12.86208
G1 X132.944 Y150.891 E12.90688
G1 X131.819 Y149.946 E13.13405
G1 X131.093 Y149.163 E13.29928
G1 X130.652 Y148.550 E13.41600
G1 X130.011 Y148.652 E13.51636
G1 X129.781 Y149.370 E13.63308
G1 X129.316 Y150.371 E13.80381
G1 X128.555 Y151.586 E14.02548
G1 X128.301 Y151.726 E14.07029
G1 X127.368 Y151.726 E14.21463
G1 X127.115 Y151.586 E14.25943
G1 X126.337 Y150.340 E14.48660
G1 X125.888 Y149.370 E14.65183
G1 X125.658 Y148.652 E14.76856
G1 X125.017 Y148.550 E14.86891
G1 X124.576 Y149.163 E14.98564
G1 X123.824 Y149.971 E15.15635
G1 X122.725 Y150.891 E15.37803
G1 X122.441 Y150.946 E15.42284
G1 X121.553 Y150.657 E15.56718
G1 X121.355 Y150.446 E15.61198
G1 X121.000 Y149.020 E15.83916
G1 X120.874 Y147.959 E16.00440
G1 X120.877 Y147.205 E16.12111
G1 X120.299 Y146.910 E16.22146
G1 X119.690 Y147.357 E16.33819
G1 X118.757 Y147.877 E16.50342
G1 X117.396 Y148.428 E16.73058
G1 X117.108 Y148.392 E16.77538
G1 X116.353 Y147.844 E16.91973
G1 X116.231 Y147.581 E16.96453
G1 X116.329 Y146.151 E17.18620
G1 X116.540 Y145.068 E17.35693
G1 X116.777 Y144.351 E17.47365
G1 X116.318 Y143.893 E17.57400
G1 X115.601 Y144.129 E17.69073
G1 X114.553 Y144.336 E17.85597
G1 X113.088 Y144.439 E18.08313
G1 X112.826 Y144.316 E18.12793
G1 X112.277 Y143.561 E18.27228
G1 X112.242 Y143.274 E18.31708
G1 X112.777 Y141.944 E18.53875
G1 X113.313 Y140.979 E18.70947
G1 X113.759 Y140.371 E18.82620
G1 X113.465 Y139.793 E18.92655
G1 X112.710 Y139.796 E19.04326
G1 X111.614 Y139.663 E19.21399
G1 X110.224 Y139.314 E19.43567
G1 X110.012 Y139.116 E19.48047
G1 X109.724 Y138.229 E19.62482
G1 X109.779 Y137.944 E19.66962
G1 X110.723 Y136.819 E19.89679
G1 X111.507 Y136.093 E20.06202
G1 X112.119 Y135.652 E20.17875
G1 X112.018 Y135.011 E20.27910
G1 X111.299 Y134.781 E20.39583
G1 X110.298 Y134.316 E20.56655
G1 X109.084 Y133.555 E20.78823
G1 X108.943 Y133.301 E20.83303
G1 X108.943 Y132.368 E20.97737
G1 X109.084 Y132.115 E21.02217
G1 X110.329 Y131.337 E21.24934
G1 X111.299 Y130.888 E21.41457
G1 X112.018 Y130.658 E21.53130
G1 X112.119 Y130.017 E21.63165
G1 X111.507 Y129.576 E21.74838
G1 X110.723 Y128.850 E21.91361
G1 X109.779 Y127.725 E22.14078
G1 X109.724 Y127.441 E22.18558
G1 X110.012 Y126.553 E22.32992
G1 X110.224 Y126.355 E22.37472
G1 X111.614 Y126.007 E22.59641
G1 X112.710 Y125.874 E22.76714
G1 X113.465 Y125.877 E22.88385
G1 X113.759 Y125.299 E22.98420
G1 X113.313 Y124.690 E23.10093
G1 X112.792 Y123.757 E23.26616
G1 X112.242 Y122.396 E23.49332
G1 X112.277 Y122.108 E23.53812
G1 X112.826 Y121.353 E23.68247
G1 X113.088 Y121.231 E23.72727
G1 X114.518 Y121.329 E23.94894
G1 X115.601 Y121.540 E24.11967
G1 X116.318 Y121.777 E24.23639
G1 X116.777 Y121.318 E24.33675
G1 X116.540 Y120.601 E24.45347
G1 X116.333 Y119.553 E24.61871
G1 X116.231 Y118.088 E24.84587
G1 X116.353 Y117.826 E24.89067
G1 X117.108 Y117.277 E25.03501
G1 X117.396 Y117.242 E25.07982
G1 X118.725 Y117.777 E25.30149
G1 X119.690 Y118.313 E25.47221
G1 X120.299 Y118.759 E25.58894
G1 X120.877 Y118.465 E25.68929
G1 X120.874 Y117.710 E25.80600
G1 X121.007 Y116.614 E25.97673
G1 X121.355 Y115.224 E26.19842
G1 X121.553 Y115.012 E26.24322
G1 X122.441 Y114.724 E26.38756
G1 X122.725 Y114.779 E26.43236
G1 X123.850 Y115.723 E26.65953
G1 X124.576 Y116.507 E26.82476
G1 X125.017 Y117.119 E26.94149
G1 X125.658 Y117.018 E27.04184
G1 X125.888 Y116.299 E27.15857
G1 X126.337 Y115.329 E27.32380
G1 X127.083 Y114.135 E27.54169
G1 E27.04169 F2400.00000
G92 E0
G1 X169.935 Y132.602 F6000.000
G1 E0.50000 F2400.00000
G1 F900
G1 X170.263 Y132.274 E0.57186
G1 X195.728 Y132.274 E4.51020
G1 X196.057 Y132.602 E4.58206
G1 X196.057 Y148.067 E6.97381
G1 X195.728 Y148.396 E7.04567
G1 X170.263 Y148.396 E10.98402
G1 X169.935 Y148.067 E11.05588
G1 X169.935 Y132.662 E13.43835
G1 E12.93835 F2400.00000
G92 E0
G1 X153.067 Y174.935 F6000.000
G1 E0.50000 F2400.00000
G1 F900
G1 X153.396 Y175.263 E0.57186
G1 X153.396 Y190.728 E2.96361
G1 X153.067 Y191.057 E3.03547
G1 X127.602 Y191.057 E6.97381
G1 X127.274 Y190.728 E7.04567
G1 X127.274 Y175.263 E9.43742
G1 X127.602 Y174.935 E9.50928
G1 X153.007 Y174.935 E13.43835
G1 E12.93835 F2400.00000
G92 E0
G1 X152.435 Y190.096 F6000.000
G1 E0.50000 F2400.00000
G1 F540
G1 X128.235 Y190.096 E3.17293
G1 X128.235 Y175.896 E4.74134
G1 X152.435 Y175.896 E7.41427
G1 X152.435 Y190.036 E8.97606
G1 X152.041 Y190.025 F6000.000
G1 X151.721 Y189.382 F6000.000
G1 F540
G1 X128.949 Y189.382 E11.49123
G1 X128.949 Y176.610 E12.90188
G1 X151.721 Y176.610 E15.41705
G1 X151.721 Y189.322 E16.82107
G1 X150.931 Y188.743 F6000.000
G1 F900
G1 X151.082 Y188.592 E16.84503
G1 X151.082 Y187.570 E16.95913
G1 X149.909 Y188.743 E17.14445
G1 X148.888 Y188.743 E17.25856
G1 X151.082 Y186.549 E17.60525
G1 X151.082 Y185.527 E17.71935
G1 X147.866 Y188.743 E18.22741
G1 X146.845 Y188.743 E18.34151
G1 X151.082 Y184.506 E19.01093
G1 X151.082 Y183.484 E19.12504
G1 X145.823 Y188.743 E19.95583
G1 X144.802 Y188.743 E20.06993
G1 X151.082 Y182.463 E21.06209
G1 X151.082 Y181.441 E21.17619
G1 X143.780 Y188.743 E22.32972
G1 X142.759 Y188.743 E22.44382
G1 X151.082 Y180.420 E23.75871
G1 X151.082 Y179.398 E23.87281
G1 X141.737 Y188.743 E25.34907
G1 X140.716 Y188.743 E25.46318
G1 X151.082 Y178.377 E27.10080
G1 X151.082 Y177.356 E27.21490
G1 X139.695 Y188.743 E29.01389
G1 X138.673 Y188.743 E29.12800
G1 X150.168 Y177.248 E30.94394
G1 X149.147 Y177.248 E31.05804
G1 X137.652 Y188.743 E32.87398
G1 X136.630 Y188.743 E32.98808
G1 X148.125 Y177.248 E34.80402
G1 X147.104 Y177.248 E34.91812
G1 X135.609 Y188.743 E36.73406
G1 X134.587 Y188.743 E36.84817
G1 X146.082 Y177.248 E38.66410
G1 X145.061 Y177.248 E38.77821
G1 X133.566 Y188.743 E40.59415
G1 X132.544 Y188.743 E40.70825
G1 X144.039 Y177.248 E42.52419
G1 X143.018 Y177.248 E42.63829
G1 X131.523 Y188.743 E44.45423
G1 X130.501 Y188.743 E44.56833
G1 X141.996 Y177.248 E46.38427
G1 X140.975 Y177.248 E46.49838
G1 X129.587 Y188.636 E48.29737
G1 X129.587 Y187.614 E48.41147
G1 X139.953 Y177.248 E50.04910
G1 X138.932 Y177.248 E50.16320
G1 X129.587 Y186.593 E51.63946
G1 X129.587 Y185.572 E51.75356
G1 X137.911 Y177.248 E53.06845
G1 X136.889 Y177.248 E53.18256
G1 X129.587 Y184.550 E54.33608
G1 X129.587 Y183.529 E54.45018
G1 X135.868 Y177.248 E55.44234
G1 X134.846 Y177.248 E55.55644
G1 X129.587 Y182.507 E56.38723
G1 X129.587 Y181.486 E56.50134
G1 X133.825 Y177.248 E57.17076
G1 X132.803 Y177.248 E57.28487
G1 X129.587 Y180.464 E57.79292
G1 X129.587 Y179.443 E57.90703
G1 X131.782 Y177.248 E58.25371
G1 X130.760 Y177.248 E58.36782
G1 X129.587 Y178.421 E58.55314
G1 X129.587 Y177.400 E58.66724
G1 X129.739 Y177.248 E58.69120
G1 Z0.400 F6000.000
; LAYER: 1 
; LAYERZ: 0.4
G1 E58.19120 F2400.00000
G92 E0
G1 X170.896 Y147.435 F6000.000
G1 E0.50000 F2400.00000
G1 F540
G1 X170.896 Y133.235 E2.06841
G1 X195.096 Y133.235 E4.74134
G1 X195.096 Y147.435 E6.30975
G1 X170.956 Y147.435 E8.97606
G1 X171.032 Y147.059 F6000.000
G1 X171.610 Y146.721 F6000.000
G1 F540
G1 X171.610 Y133.949 E10.38671
G1 X194.382 Y133.949 E12.90188
G1 X194.382 Y146.721 E14.31253
G1 X171.670 Y146.721 E16.82107
G1 E16.32107 F2400.00000
G92 E0
G1 X172.400 Y134.587 F6000.000
G1 E0.50000 F2400.00000
G1 F900
G1 X172.248 Y134.739 E0.52396
G1 X172.248 Y135.760 E0.63806
G1 X173.421 Y134.587 E0.82338
G1 X174.443 Y134.587 E0.93749
G1 X172.248 Y136.782 E1.28417
G1 X172.248 Y137.803 E1.39828
G1 X175.464 Y134.587 E1.90633
G1 X176.486 Y134.587 E2.02044
G1 X172.248 Y138.825 E2.68986
G1 X172.248 Y139.846 E2.80396
G1 X177.507 Y134.587 E3.63475
G1 X178.529 Y134.587 E3.74886
G1 X172.248 Y140.868 E4.74102
G1 X172.248 Y141.889 E4.85512
G1 X179.550 Y134.587 E6.00864
G1 X180.572 Y134.587 E6.12275
G1 X172.248 Y142.911 E7.43764
G1 X172.248 Y143.932 E7.55174
G1 X181.593 Y134.587 E9.02800
G1 X182.614 Y134.587 E9.14210
G1 X172.248 Y144.953 E10.77973
G1 X172.248 Y145.975 E10.89383
G1 X183.636 Y134.587 E12.69282
G1 X184.657 Y134.587 E12.80693
G1 X173.162 Y146.082 E14.62287
G1 X174.184 Y146.082 E14.73697
G1 X185.679 Y134.587 E16.55291
G1 X186.700 Y134.587 E16.66701
G1 X175.205 Y146.082 E18.48295
G1 X176.227 Y146.082 E18.59705
G1 X187.722 Y134.587 E20.41299
G1 X188.743 Y134.587 E20.52710
G1 X177.248 Y146.082 E22.34303
G1 X178.270 Y146.082 E22.45714
G1 X189.765 Y134.587 E24.27308
G1 X190.786 Y134.587 E24.38718
G1 X179.291 Y146.082 E26.20312
G1 X180.313 Y146.082 E26.31722
G1 X191.808 Y134.587 E28.13316
G1 X192.829 Y134.587 E28.24726
G1 X181.334 Y146.082 E30.06320
G1 X182.356 Y146.082 E30.17731
G1 X193.743 Y134.695 E31.97630
G1 X193.743 Y135.716 E32.09040
G1 X183.377 Y146.082 E33.72802
G1 X184.398 Y146.082 E33.84213
G1 X193.743 Y136.737 E35.31839
G1 X193.743 Y137.759 E35.43249
G1 X185.420 Y146.082 E36.74738
G1 X186.441 Y146.082 E36.86148
G1 X193.743 Y138.780 E38.01501
G1 X193.743 Y139.802 E38.12911
G1 X187.463 Y146.082 E39.12127
G1 X188.484 Y146.082 E39.23537
G1 X193.743 Y140.823 E40.06616
G1 X193.743 Y141.845 E40.18027
G1 X189.506 Y146.082 E40.84969
G1 X190.527 Y146.082 E40.96379
G1 X193.743 Y142.866 E41.47185
G1 X193.743 Y143.888 E41.58595
G1 X191.549 Y146.082 E41.93264
G1 X192.570 Y146.082 E42.04674
G1 X193.743 Y144.909 E42.23207
G1 X193.743 Y145.931 E42.34617
G1 X193.592 Y146.082 E42.37013
G1 Z0.400 F6000.000
; LAYER: 2 
; LAYERZ: 0.4
G1 E41.87013 F2400.00000
G92 E0
G1 X141.880 Y135.916 F6000.000
G1 E0.50000 F2400.00000
G1 F540
G1 X142.489 Y136.153 E0.57220
G1 X142.936 Y136.394 E0.62823
G1 X143.541 Y136.827 E0.71046
G1 X144.262 Y137.495 E0.81894
G1 X145.040 Y138.425 E0.95293
G1 X143.863 Y138.720 E1.08692
G1 X142.888 Y138.837 E1.19541
G1 X142.144 Y138.831 E1.27763
G1 X141.641 Y138.764 E1.33366
G1 X141.009 Y138.598 E1.40586
G1 X140.240 Y140.105 E1.59278
G1 X140.747 Y140.519 E1.66499
G1 X141.097 Y140.886 E1.72101
G1 X141.539 Y141.485 E1.80324
G1 X142.018 Y142.343 E1.91172
G1 X142.470 Y143.468 E2.04571
G1 X141.260 Y143.385 E2.17969
G1 X140.297 Y143.195 E2.28817
G1 X139.590 Y142.959 E2.37040
G1 X139.133 Y142.740 E2.42642
G1 X138.583 Y142.387 E2.49864
G1 X137.387 Y143.583 E2.68552
G1 X137.740 Y144.133 E2.75774
G1 X137.959 Y144.590 E2.81376
G1 X138.195 Y145.297 E2.89599
G1 X138.385 Y146.260 E3.00447
G1 X138.468 Y147.470 E3.13846
G1 X137.343 Y147.018 E3.27244
G1 X136.485 Y146.539 E3.38092
G1 X135.886 Y146.097 E3.46315
G1 X135.519 Y145.747 E3.51917
G1 X135.105 Y145.240 E3.59138
G1 X133.598 Y146.009 E3.77830
G1 X133.764 Y146.641 E3.85050
G1 X133.831 Y147.144 E3.90653
G1 X133.837 Y147.888 E3.98875
G1 X133.720 Y148.863 E4.09724
G1 X133.425 Y150.040 E4.23123
G1 X132.495 Y149.262 E4.36522
G1 X131.827 Y148.541 E4.47370
G1 X131.394 Y147.936 E4.55594
G1 X131.153 Y147.489 E4.61196
G1 X130.916 Y146.880 E4.68416
G1 X129.245 Y147.145 E4.87107
G1 X129.207 Y147.797 E4.94328
G1 X129.116 Y148.296 E4.99931
G1 X128.891 Y149.006 E5.08153
G1 X128.479 Y149.898 E5.19002
G1 X127.835 Y150.926 E5.32401
G1 X127.191 Y149.898 E5.45799
G1 X126.778 Y149.006 E5.56648
G1 X126.553 Y148.296 E5.64870
G1 X126.462 Y147.797 E5.70473
G1 X126.425 Y147.145 E5.77694
G1 X124.754 Y146.880 E5.96385
G1 X124.516 Y147.489 E6.03605
G1 X124.275 Y147.936 E6.09207
G1 X123.842 Y148.541 E6.17431
G1 X123.175 Y149.262 E6.28279
G1 X122.244 Y150.040 E6.41678
G1 X121.949 Y148.863 E6.55077
G1 X121.833 Y147.888 E6.65926
G1 X121.838 Y147.144 E6.74148
G1 X121.906 Y146.641 E6.79751
G1 X122.072 Y146.009 E6.86971
G1 X120.564 Y145.240 E7.05663
G1 X120.150 Y145.747 E7.12884
G1 X119.783 Y146.097 E7.18486
G1 X119.184 Y146.539 E7.26709
G1 X118.327 Y147.018 E7.37557
G1 X117.201 Y147.470 E7.50955
G1 X117.284 Y146.260 E7.64354
G1 X117.475 Y145.297 E7.75202
G1 X117.710 Y144.590 E7.83425
G1 X117.930 Y144.133 E7.89027
G1 X118.283 Y143.583 E7.96249
G1 X117.086 Y142.387 E8.14937
G1 X116.536 Y142.740 E8.22159
G1 X116.079 Y142.959 E8.27761
G1 X115.373 Y143.195 E8.35984
G1 X114.409 Y143.385 E8.46832
G1 X113.199 Y143.468 E8.60231
G1 X113.652 Y142.343 E8.73629
G1 X114.131 Y141.485 E8.84477
G1 X114.573 Y140.886 E8.92700
G1 X114.923 Y140.519 E8.98302
G1 X115.429 Y140.105 E9.05523
G1 X114.661 Y138.598 E9.24215
G1 X114.029 Y138.764 E9.31435
G1 X113.526 Y138.831 E9.37038
G1 X112.781 Y138.837 E9.45260
G1 X111.806 Y138.720 E9.56109
G1 X110.629 Y138.425 E9.69508
G1 X111.408 Y137.495 E9.82907
G1 X112.128 Y136.827 E9.93755
G1 X112.734 Y136.394 E10.01978
G1 X113.180 Y136.153 E10.07581
