; generated by Slic3r 1.3.0 on 2020-02-25 at 23:21:41

; external perimeters extrusion width = 0.44mm (2.38mm^3/s)
; perimeters extrusion width = 0.56mm (3.10mm^3/s)
; infill extrusion width = 0.50mm (4.57mm^3/s)
; solid infill extrusion width = 0.56mm (5.17mm^3/s)
; top infill extrusion width = 0.56mm (5.17mm^3/s)

M107
; -- TypeA START GCODE --
G21        ;metric values
G90        ;absolute positioning
G28     ;move to endstops
G29		;allows for auto-levelling
G1 Z15.0 F12000 ;move the platform down 15mm
G1 X150 Y5 F12000 ;center
M140 S50;Prep Heat Bed
M109 S210 ;Heat hotend to temp
M190 S50 ;Heat Bed to temp
G1 X150 Y5 Z0.3 ;move the platform to purge extrusion
G92 E0 ;zero the extruded length
G1 F200 X250 E30 ;extrude 30mm of feed stock
G92 E0 ;zero the extruded length again
G1 X150 Y150  Z25 F12000 ;recenter and begin
G1 F12000

; Filament gcode

G21 ; set units to millimeters
G90 ; use absolute coordinates
M82 ; use absolute distances for extrusion
G92 E0
G1 Z0.400 F6000.000
; LAYER: 0 
; LAYERZ: 0.4
G1 E-0.50000 F2400.00000
G92 E0
G1 X148.342 Y148.477 F6000.000
G1 E0.50000 F2400.00000
G1 F657.347
G1 X149.026 Y147.932 E0.63241
G1 X148.769 Y147.451 E0.71497
G1 X148.677 Y147.194 E0.75625
G1 X148.599 Y146.683 E0.83442
G1 X148.641 Y145.895 E0.95382
G1 X148.913 Y144.872 E1.11402
G1 X149.525 Y143.652 E1.32056
G1 X149.722 Y143.497 E1.35859
G1 X150.355 Y143.353 E1.45681
G1 X150.600 Y143.407 E1.49484
G1 X151.724 Y144.281 E1.71028
G1 X152.370 Y145.044 E1.86158
G1 X152.749 Y145.736 E1.98099
G1 X152.911 Y146.282 E2.06711
G1 X152.930 Y146.501 E2.10041
G1 X152.906 Y147.046 E2.18299
G1 X153.759 Y147.241 E2.31540
G1 X153.974 Y146.739 E2.39796
G1 X154.087 Y146.550 E2.43128
G1 X154.469 Y146.129 E2.51739
G1 X155.111 Y145.670 E2.63680
G1 X156.080 Y145.245 E2.79700
G1 X157.415 Y144.962 E3.00354
G1 X157.660 Y145.020 E3.04157
G1 X158.167 Y145.425 E3.13979
G1 X158.278 Y145.650 E3.17783
G1 X158.300 Y147.015 E3.38436
G1 X158.077 Y148.179 E3.56376
G1 X158.026 Y148.247 E3.57670
G1 X157.797 Y148.782 E3.66475
G1 X157.505 Y149.209 E3.74291
G1 X157.311 Y149.400 E3.78420
G1 X156.870 Y149.722 E3.86676
G1 X157.250 Y150.510 E3.99917
G1 X157.776 Y150.366 E4.08173
G1 X157.994 Y150.336 E4.11505
G1 X158.562 Y150.372 E4.20116
G1 X159.321 Y150.587 E4.32057
G1 X160.258 Y151.080 E4.48077
G1 X161.311 Y151.948 E4.68731
G1 X161.419 Y152.175 E4.72534
G1 X161.419 Y152.825 E4.82357
G1 X161.311 Y153.052 E4.86160
G1 X160.258 Y153.920 E5.06814
G1 X159.321 Y154.413 E5.22834
G1 X158.562 Y154.628 E5.34775
G1 X158.047 Y154.666 E5.42592
G1 X157.776 Y154.634 E5.46719
G1 X157.250 Y154.490 E5.54975
G1 X156.870 Y155.278 E5.68216
G1 X157.311 Y155.600 E5.76472
G1 X157.505 Y155.791 E5.80600
G1 X157.797 Y156.218 E5.88416
G1 X158.101 Y156.945 E6.00356
G1 X158.300 Y157.985 E6.16376
G1 X158.278 Y159.350 E6.37031
G1 X158.167 Y159.575 E6.40835
G1 X157.660 Y159.980 E6.50656
G1 X157.415 Y160.038 E6.54459
G1 X156.080 Y159.755 E6.75113
G1 X155.111 Y159.330 E6.91133
G1 X154.469 Y158.871 E7.03073
G1 X154.087 Y158.450 E7.11685
G1 X153.974 Y158.261 E7.15017
G1 X153.759 Y157.759 E7.23273
G1 X152.906 Y157.954 E7.36514
G1 X152.930 Y158.499 E7.44770
G1 X152.901 Y158.770 E7.48899
G1 X152.749 Y159.264 E7.56714
G1 X152.370 Y159.956 E7.68655
G1 X151.681 Y160.760 E7.84675
G1 X150.600 Y161.593 E8.05329
G1 X150.355 Y161.647 E8.09132
G1 X149.722 Y161.503 E8.18954
G1 X149.525 Y161.348 E8.22758
G1 X148.913 Y160.128 E8.43412
G1 X148.641 Y159.105 E8.59432
G1 X148.599 Y158.317 E8.71373
G1 X148.690 Y157.755 E8.79984
G1 X148.769 Y157.549 E8.83316
G1 X149.026 Y157.068 E8.91572
G1 X148.342 Y156.523 E9.04813
G1 X147.931 Y156.881 E9.13069
G1 X147.701 Y157.028 E9.17197
G1 X147.220 Y157.217 E9.25014
G1 X146.443 Y157.352 E9.36955
G1 X145.385 Y157.314 E9.52974
G1 X144.059 Y156.989 E9.73628
G1 X143.864 Y156.831 E9.77431
G1 X143.582 Y156.246 E9.87254
G1 X143.580 Y155.995 E9.91057
G1 X144.183 Y154.705 E10.12601
G1 X144.783 Y153.906 E10.27731
G1 X145.373 Y153.382 E10.39671
G1 X145.869 Y153.103 E10.48284
G1 X146.079 Y153.036 E10.51615
G1 X146.616 Y152.937 E10.59871
G1 X146.616 Y152.063 E10.73111
G1 X146.079 Y151.964 E10.81368
G1 X145.869 Y151.897 E10.84699
G1 X145.373 Y151.618 E10.93311
G1 X144.783 Y151.094 E11.05251
G1 X144.153 Y150.244 E11.21271
G1 X143.580 Y149.005 E11.41925
G1 X143.582 Y148.754 E11.45729
G1 X143.864 Y148.169 E11.55551
G1 X144.059 Y148.011 E11.59354
G1 X145.385 Y147.686 E11.80008
G1 X146.443 Y147.648 E11.96027
G1 X147.220 Y147.783 E12.07968
G1 X147.701 Y147.972 E12.15784
G1 X147.931 Y148.119 E12.19912
G1 X148.297 Y148.438 E12.27261
G1 E11.77261 F2400.00000
G92 E0
G1 X148.614 Y155.013 F6000.000
G1 E0.50000 F2400.00000
G1 F600
G1 X147.336 Y156.125 E0.68308
G1 X146.979 Y156.284 E0.72538
G1 X146.400 Y156.390 E0.78897
G1 X145.544 Y156.364 E0.88152
G1 X144.578 Y156.127 E0.98901
G1 X144.995 Y155.224 E1.09650
G1 X145.509 Y154.539 E1.18906
G1 X145.952 Y154.152 E1.25265
G1 X146.235 Y153.994 E1.28766
G1 X147.966 Y153.667 E1.47806
G1 X147.966 Y152.819 E1.56965
G1 X148.283 Y152.734 E1.60518
G1 X149.962 Y155.641 E1.96798
G1 X149.693 Y155.873 E2.00635
G1 X148.661 Y155.050 E2.14898
G1 X148.312 Y154.750 F6000.000
G1 X147.845 Y154.736 F6000.000
G1 F600
G1 X146.927 Y155.534 E2.28045
G1 X146.778 Y155.595 E2.29784
G1 X146.346 Y155.673 E2.34529
G1 X145.568 Y155.650 E2.42937
G1 X146.035 Y155.028 E2.51346
G1 X146.366 Y154.739 E2.56091
G1 X146.506 Y154.660 E2.57829
G1 X147.703 Y154.441 E2.70976
G1 X147.818 Y154.681 E2.73861
G1 X147.966 Y151.333 F6000.000
G1 F600
G1 X146.300 Y151.028 E2.92168
G1 X145.952 Y150.848 E2.96398
G1 X145.509 Y150.461 E3.02757
G1 X144.995 Y149.776 E3.12013
G1 X144.578 Y148.873 E3.22762
G1 X145.544 Y148.636 E3.33511
G1 X146.400 Y148.610 E3.42767
G1 X146.979 Y148.716 E3.49126
G1 X147.336 Y148.875 E3.53356
G1 X148.614 Y149.987 E3.71663
G1 X149.693 Y149.127 E3.86575
G1 X149.962 Y149.359 E3.90412
G1 X148.283 Y152.266 E4.26692
G1 X147.966 Y152.181 E4.30245
G1 X147.966 Y151.393 E4.38755
G1 X147.970 Y150.933 F6000.000
G1 X147.703 Y150.559 F6000.000
G1 F600
G1 X146.506 Y150.340 E4.51902
G1 X146.366 Y150.261 E4.53640
G1 X146.035 Y149.972 E4.58386
G1 X145.568 Y149.350 E4.66794
G1 X146.346 Y149.327 E4.75203
G1 X146.778 Y149.405 E4.79948
G1 X146.927 Y149.466 E4.81686
G1 X147.845 Y150.264 E4.94833
G1 X147.729 Y150.505 E4.97718
G1 X151.895 Y148.200 F6000.000
G1 F600
G1 X154.170 Y148.719 E5.22937
G1 X154.838 Y147.163 E5.41244
G1 X155.091 Y146.864 E5.45474
G1 X155.567 Y146.518 E5.51833
G1 X156.349 Y146.170 E5.61089
G1 X157.322 Y145.964 E5.71838
G1 X157.338 Y146.958 E5.82587
G1 X157.173 Y147.799 E5.91843
G1 X156.941 Y148.339 E5.98201
G1 X156.706 Y148.652 E6.02431
G1 X155.338 Y149.651 E6.20739
G1 X156.350 Y151.753 E6.45958
G1 X157.984 Y151.305 E6.64266
G1 X158.375 Y151.317 E6.68496
G1 X158.942 Y151.473 E6.74855
G1 X159.702 Y151.868 E6.84111
G1 X160.470 Y152.500 E6.94860
G1 X159.702 Y153.132 E7.05608
G1 X158.942 Y153.527 E7.14864
G1 X158.375 Y153.683 E7.21223
G1 X157.984 Y153.695 E7.25453
G1 X156.350 Y153.247 E7.43761
G1 X155.338 Y155.349 E7.68980
G1 X156.706 Y156.348 E7.87288
G1 X156.941 Y156.661 E7.91518
G1 X157.173 Y157.201 E7.97876
G1 X157.338 Y158.042 E8.07132
G1 X157.322 Y159.036 E8.17881
G1 X156.349 Y158.830 E8.28630
G1 X155.567 Y158.482 E8.37886
G1 X155.091 Y158.136 E8.44245
G1 X154.838 Y157.837 E8.48475
G1 X154.170 Y156.281 E8.66782
G1 X151.895 Y156.800 E8.92001
G1 X151.968 Y158.492 E9.10309
G1 X151.869 Y158.871 E9.14539
G1 X151.591 Y159.389 E9.20898
G1 X151.037 Y160.043 E9.30154
G1 X150.250 Y160.650 E9.40903
G1 X149.804 Y159.761 E9.51652
G1 X149.589 Y158.932 E9.60908
G1 X149.562 Y158.345 E9.67266
G1 X149.638 Y157.961 E9.71496
G1 X150.438 Y156.468 E9.89804
G1 X150.125 Y156.218 E9.94128
G1 X150.226 Y155.931 E9.97414
G1 X153.991 Y155.931 E10.38111
G1 X154.008 Y156.075 E10.39679
G1 X156.072 Y152.500 E10.84297
G1 X154.008 Y148.925 E11.28915
G1 X153.991 Y149.069 E11.30483
G1 X150.226 Y149.069 E11.71180
G1 X150.125 Y148.782 E11.74466
G1 X150.438 Y148.532 E11.78790
G1 X149.638 Y147.039 E11.97098
G1 X149.562 Y146.655 E12.01328
G1 X149.589 Y146.068 E12.07687
G1 X149.804 Y145.239 E12.16943
G1 X150.250 Y144.350 E12.27691
G1 X151.037 Y144.957 E12.38440
G1 X151.591 Y145.611 E12.47696
G1 X151.869 Y146.129 E12.54055
G1 X151.968 Y146.508 E12.58285
G1 X151.897 Y148.140 E12.75944
G1 X151.830 Y148.595 F6000.000
G1 X151.198 Y147.771 F6000.000
G1 F600
G1 X150.880 Y147.844 E12.79477
G1 X150.305 Y146.772 E12.92624
G1 X150.279 Y146.613 E12.94362
G1 X150.299 Y146.174 E12.99107
G1 X150.494 Y145.421 E13.07516
G1 X150.997 Y146.015 E13.15925
G1 X151.205 Y146.402 E13.20670
G1 X151.251 Y146.556 E13.22408
G1 X151.201 Y147.711 E13.34907
G1 X154.983 Y148.635 F6000.000
G1 F600
G1 X155.463 Y147.517 E13.48053
G1 X155.571 Y147.398 E13.49792
G1 X155.926 Y147.140 E13.54537
G1 X156.637 Y146.823 E13.62945
G1 X156.486 Y147.587 E13.71354
G1 X156.314 Y147.990 E13.76099
G1 X156.221 Y148.122 E13.77837
G1 X155.239 Y148.839 E13.90984
G1 X155.030 Y148.673 E13.93869
G1 X156.819 Y152.365 F6000.000
G1 F600
G1 X158.096 Y152.015 E14.08185
G1 X158.257 Y152.025 E14.09924
G1 X158.680 Y152.142 E14.14669
G1 X159.371 Y152.500 E14.23077
G1 X158.680 Y152.858 E14.31486
G1 X158.257 Y152.975 E14.36231
G1 X158.096 Y152.985 E14.37969
G1 X156.819 Y152.635 E14.52286
G1 X156.897 Y152.500 E14.53969
G1 X156.849 Y152.417 E14.55003
G1 X155.239 Y156.161 F6000.000
G1 F600
G1 X156.221 Y156.878 E14.68150
G1 X156.314 Y157.010 E14.69888
G1 X156.486 Y157.413 E14.74634
G1 X156.637 Y158.177 E14.83042
G1 X155.926 Y157.860 E14.91451
G1 X155.571 Y157.602 E14.96196
G1 X155.463 Y157.483 E14.97934
G1 X154.983 Y156.365 E15.11081
G1 X155.192 Y156.198 E15.13965
G1 X151.198 Y157.229 F6000.000
G1 F600
G1 X151.251 Y158.444 E15.27112
G1 X151.205 Y158.598 E15.28851
G1 X150.997 Y158.985 E15.33596
G1 X150.494 Y159.579 E15.42004
G1 X150.299 Y158.826 E15.50413
G1 X150.279 Y158.387 E15.55158
G1 X150.305 Y158.228 E15.56896
G1 X150.880 Y157.156 E15.70043
G1 X151.140 Y157.215 E15.72927
G1 X151.285 Y156.528 F6000.000
G1 F600
G1 X151.239 Y156.576 E15.73372
G1 X150.811 Y156.528 E15.76258
G1 X151.285 Y156.528 F6000.000
G1 F600
G1 X151.371 Y156.479 E15.76774
G1 F600
G1 X151.456 Y156.429 E15.77143
G1 F600
G1 X151.499 Y156.405 E15.77253
G1 X151.717 Y156.380 E15.77741
G1 F600
G1 X152.154 Y156.331 E15.78111
G1 X150.767 Y158.123 F6000.000
G1 F600
G1 X150.767 Y158.385 E15.78753
G1 X150.737 Y158.716 E15.79566
G1 X148.394 Y154.296 F6000.000
G1 F600
G1 X148.388 Y154.286 E15.79666
G1 X146.860 Y155.119 F6000.000
G1 F600
G1 X146.672 Y155.119 E15.80128
G1 X146.363 Y155.303 E15.81005
G1 X148.388 Y150.714 F6000.000
G1 F600
G1 X148.394 Y150.704 E15.81106
G1 X146.952 Y149.961 F6000.000
G1 F600
G1 X146.672 Y149.881 E15.81821
G1 X146.363 Y149.699 E15.82698
G1 X150.811 Y148.472 F6000.000
G1 F600
G1 X151.239 Y148.424 E15.85584
G1 X151.285 Y148.472 E15.86028
G1 F600
G1 X151.371 Y148.521 E15.86545
G1 F600
G1 X151.456 Y148.571 E15.86913
G1 F600
G1 X151.499 Y148.595 E15.87023
G1 X151.717 Y148.620 E15.87511
G1 F600
G1 X152.154 Y148.669 E15.87882
G1 X150.767 Y146.877 F6000.000
G1 F600
G1 X150.767 Y146.615 E15.88523
G1 X150.734 Y146.280 E15.89347
G1 X155.637 Y148.017 F6000.000
G1 F600
G1 X156.125 Y147.525 E15.91001
G1 E15.41001 F2400.00000
G92 E0
G1 X155.637 Y156.983 F6000.000
G1 E0.50000 F2400.00000
G1 F600
G1 X155.893 Y157.244 E0.50872
G1 X156.026 Y157.244 E0.51189
M106 S255
G1 Z0.600 F6000.000
; LAYER: 1 
; LAYERZ: 0.6
G1 X150.233 Y155.751 F6000.000
G1 F1800
G1 X148.356 Y152.500 E0.62468
G1 X150.233 Y149.249 E0.73747
G1 X153.987 Y149.249 E0.85026
G1 X155.864 Y152.500 E0.96306
G1 X153.987 Y155.751 E1.07585
G1 X150.293 Y155.751 E1.18684
G1 X149.887 Y155.951 F6000.000
G1 X148.473 Y151.384 F6000.000
G1 F600
G1 X148.243 Y151.322 E1.19615
G1 X148.243 Y151.102 E1.20474
G1 X146.356 Y150.756 E1.27980
G1 X146.113 Y150.620 E1.29071
G1 X145.713 Y150.271 E1.31147
G1 X145.234 Y149.633 E1.34269
G1 X144.970 Y149.062 E1.36730
G1 X145.581 Y148.912 E1.39191
G1 X146.379 Y148.888 E1.42313
G1 X146.901 Y148.983 E1.44388
G1 X147.159 Y149.088 E1.45479
G1 X148.606 Y150.348 E1.52985
G1 X148.927 Y150.092 E1.54588
G1 X149.121 Y150.260 E1.55594
G1 X148.503 Y151.332 E1.60435
G1 X151.608 Y148.419 F6000.000
G1 F600
G1 X152.035 Y148.516 E1.62149
G1 X152.004 Y148.792 E1.63234
G1 X150.892 Y148.792 E1.67587
G1 X149.886 Y146.914 E1.75922
G1 X149.841 Y146.639 E1.77013
G1 X149.864 Y146.109 E1.79088
G1 X150.065 Y145.337 E1.82210
G1 X150.347 Y144.774 E1.84671
G1 X150.845 Y145.159 E1.87132
G1 X151.361 Y145.767 E1.90254
G1 X151.612 Y146.235 E1.92330
G1 X151.690 Y146.502 E1.93421
G1 X151.611 Y148.359 E2.00692
G1 X154.783 Y149.713 F6000.000
G1 F600
G1 X154.359 Y148.980 E2.04003
G1 X155.090 Y147.278 E2.11249
G1 X155.277 Y147.071 E2.12340
G1 X155.706 Y146.759 E2.14415
G1 X156.435 Y146.435 E2.17538
G1 X157.051 Y146.305 E2.19999
G1 X157.061 Y146.933 E2.22460
G1 X156.906 Y147.716 E2.25582
G1 X156.698 Y148.204 E2.27657
G1 X156.538 Y148.432 E2.28748
G1 X154.831 Y149.677 E2.37013
G1 X156.392 Y152.500 F6000.000
G1 F600
G1 X156.157 Y152.093 E2.38851
G1 X158.051 Y151.574 E2.46534
G1 X158.329 Y151.592 E2.47625
G1 X158.841 Y151.733 E2.49700
G1 X159.549 Y152.100 E2.52823
G1 X160.034 Y152.500 E2.55283
G1 X159.549 Y152.900 E2.57744
G1 X158.841 Y153.267 E2.60867
G1 X158.329 Y153.408 E2.62942
G1 X158.051 Y153.426 E2.64033
G1 X156.157 Y152.907 E2.71716
G1 X156.362 Y152.552 E2.73319
G1 X154.783 Y155.287 F6000.000
G1 F600
G1 X156.538 Y156.568 E2.81819
G1 X156.698 Y156.796 E2.82910
G1 X156.906 Y157.284 E2.84985
G1 X157.061 Y158.067 E2.88107
G1 X157.051 Y158.695 E2.90568
G1 X156.435 Y158.565 E2.93029
G1 X155.706 Y158.241 E2.96152
G1 X155.277 Y157.929 E2.98227
G1 X155.090 Y157.722 E2.99318
G1 X154.359 Y156.020 E3.06563
G1 X154.753 Y155.339 E3.09640
G1 X151.608 Y156.581 F6000.000
G1 F600
G1 X151.690 Y158.498 E3.17146
G1 X151.612 Y158.765 E3.18237
G1 X151.361 Y159.233 E3.20313
G1 X150.845 Y159.841 E3.23435
G1 X150.347 Y160.226 E3.25896
G1 X150.065 Y159.663 E3.28357
G1 X149.864 Y158.891 E3.31479
G1 X149.841 Y158.361 E3.33554
G1 X149.886 Y158.086 E3.34645
G1 X150.892 Y156.208 E3.42980
G1 X152.004 Y156.208 E3.47333
G1 X152.035 Y156.484 E3.48418
G1 X151.666 Y156.568 E3.49897
G1 X148.243 Y153.898 F6000.000
G1 F600
G1 X148.243 Y153.678 E3.50756
G1 X148.473 Y153.616 E3.51688
G1 X149.121 Y154.740 E3.56763
G1 X148.927 Y154.908 E3.57769
G1 X148.606 Y154.652 E3.59372
G1 X147.159 Y155.912 E3.66877
G1 X146.901 Y156.017 E3.67969
G1 X146.379 Y156.112 E3.70044
G1 X145.581 Y156.088 E3.73166
G1 X144.970 Y155.938 E3.75627
G1 X145.234 Y155.367 E3.78088
G1 X145.713 Y154.729 E3.81210
G1 X146.113 Y154.380 E3.83286
G1 X146.356 Y154.244 E3.84377
G1 X148.184 Y153.908 E3.91648
G1 X147.786 Y153.517 F6000.000
G1 F1800
G1 X147.786 Y151.483 E3.97758
G1 X146.255 Y151.202 E4.02435
G1 X146.162 Y151.171 E4.02730
G1 X145.848 Y150.996 E4.03810
G1 X145.376 Y150.584 E4.05691
G1 X144.840 Y149.868 E4.08378
G1 X144.386 Y148.886 E4.11631
G1 X144.468 Y148.714 E4.12202
G1 X145.519 Y148.457 E4.15455
G1 X146.413 Y148.430 E4.18142
G1 X147.029 Y148.542 E4.20023
G1 X147.362 Y148.678 E4.21103
G1 X147.445 Y148.731 E4.21398
G1 X148.619 Y149.753 E4.26076
G1 X150.209 Y148.485 E4.32185
G1 X149.474 Y147.113 E4.36862
G1 X149.440 Y147.021 E4.37157
G1 X149.382 Y146.666 E4.38238
G1 X149.410 Y146.041 E4.40119
G1 X149.635 Y145.175 E4.42806
G1 X150.120 Y144.207 E4.46059
G1 X150.305 Y144.165 E4.46630
G1 X151.162 Y144.826 E4.49882
G1 X151.740 Y145.509 E4.52570
G1 X152.037 Y146.060 E4.54451
G1 X152.138 Y146.405 E4.55531
G1 X152.148 Y146.503 E4.55826
G1 X152.081 Y148.058 E4.60503
G1 X154.063 Y148.510 E4.66613
G1 X154.678 Y147.080 E4.71290
G1 X154.729 Y146.996 E4.71585
G1 X154.970 Y146.730 E4.72665
G1 X155.476 Y146.361 E4.74546
G1 X156.293 Y145.998 E4.77234
G1 X157.353 Y145.773 E4.80486
G1 X157.501 Y145.892 E4.81057
G1 X157.519 Y146.974 E4.84310
G1 X157.346 Y147.852 E4.86997
G1 X157.099 Y148.427 E4.88878
G1 X156.893 Y148.722 E4.89959
G1 X156.823 Y148.790 E4.90254
G1 X155.565 Y149.708 E4.94931
G1 X156.447 Y151.540 E5.01041
G1 X157.948 Y151.128 E5.05718
G1 X158.046 Y151.116 E5.06013
G1 X158.405 Y151.138 E5.07093
G1 X159.008 Y151.305 E5.08974
