; generated by Slic3r 1.3.0 on 2020-02-24 at 21:10:20

; external perimeters extrusion width = 0.44mm (2.38mm^3/s)
; perimeters extrusion width = 0.56mm (3.10mm^3/s)
; infill extrusion width = 0.50mm (4.57mm^3/s)
; solid infill extrusion width = 0.56mm (5.17mm^3/s)
; top infill extrusion width = 0.56mm (5.17mm^3/s)

M107
; -- TypeA START GCODE --
G21        ;metric values
G90        ;absolute positioning
G28     ;move to endstops
G29		;allows for auto-levelling
G1 Z15.0 F12000 ;move the platform down 15mm
G1 X150 Y5 F12000 ;center
M140 S50;Prep Heat Bed
M109 S210 ;Heat hotend to temp
M190 S50 ;Heat Bed to temp
G1 X150 Y5 Z0.3 ;move the platform to purge extrusion
G92 E0 ;zero the extruded length
G1 F200 X250 E30 ;extrude 30mm of feed stock
G92 E0 ;zero the extruded length again
G1 X150 Y150  Z25 F12000 ;recenter and begin
G1 F12000

; Filament gcode

G21 ; set units to millimeters
G90 ; use absolute coordinates
M82 ; use absolute distances for extrusion
G92 E0
G1 Z0.400 F6000.000
; LAYER: 0 
; LAYERZ: 0.4
G1 E-0.50000 F2400.00000
G92 E0
G1 X172.872 Y154.832 F6000.000
G1 E0.50000 F2400.00000
G1 F900
G1 X172.938 Y157.249 E0.86590
G1 X172.968 Y157.350 E0.88189
G1 X171.752 Y162.700 E1.71223
G1 X171.757 Y162.806 E1.72831
G1 X169.155 Y167.904 E2.59451
G1 X165.466 Y172.070 E3.43660
G1 X165.419 Y172.164 E3.45255
G1 X160.704 Y175.358 E4.31437
G1 X160.635 Y175.439 E4.33042
G1 X155.205 Y177.389 E5.20361
G1 X155.119 Y177.449 E5.21948
G1 X149.308 Y177.998 E6.10273
G1 X149.210 Y178.035 E6.11859
G1 X148.989 Y178.028 E6.15211
G1 X148.893 Y177.985 E6.16803
G1 X143.374 Y177.114 E7.01352
G1 X143.271 Y177.125 E7.02925
G1 X143.059 Y177.064 E7.06256
G1 X142.977 Y176.998 E7.07852
G1 X137.784 Y174.760 E7.93430
G1 X137.681 Y174.745 E7.95008
G1 X137.494 Y174.635 E7.98297
G1 X137.431 Y174.552 E7.99870
G1 X132.897 Y171.050 E8.86566
G1 X132.800 Y171.010 E8.88145
G1 X132.644 Y170.855 E8.91472
G1 X132.604 Y170.759 E8.93060
G1 X129.042 Y166.194 E9.80684
G1 X128.957 Y166.131 E9.82286
G1 X128.841 Y165.937 E9.85709
G1 X128.826 Y165.832 E9.87316
G1 X126.479 Y160.464 E10.75971
G1 X126.413 Y160.382 E10.77561
G1 X126.351 Y160.170 E10.80901
G1 X126.362 Y160.066 E10.82485
G1 X125.355 Y153.893 E11.77136
G1 X125.392 Y153.794 E11.78730
G1 X125.954 Y147.497 E12.74404
G1 X126.014 Y147.411 E12.75998
G1 X128.142 Y141.383 E13.72732
G1 X128.222 Y141.314 E13.74336
G1 X131.815 Y135.948 E14.72061
G1 X131.909 Y135.901 E14.73650
G1 X136.772 Y131.545 E15.72462
G1 X136.875 Y131.523 E15.74050
G1 X142.732 Y128.474 E16.73982
G1 X142.839 Y128.478 E16.75599
G1 X149.328 Y126.963 E17.76447
G1 X149.429 Y126.992 E17.78039
G1 X156.167 Y127.134 E18.80027
G1 X156.258 Y127.188 E18.81630
G1 X162.823 Y129.015 E19.84764
G1 X162.899 Y129.094 E19.86420
G1 X168.593 Y132.368 E20.85807
G1 X168.685 Y132.395 E20.87268
G1 X173.640 Y137.220 E21.91930
G1 X173.735 Y137.272 E21.93575
G1 X177.394 Y143.264 E22.99828
G1 X177.471 Y143.337 E23.01430
G1 X179.033 Y148.427 E23.82007
G1 X179.099 Y148.537 E23.83954
G1 X179.512 Y148.950 E23.92784
G1 X179.512 Y149.948 E24.07895
G1 X179.594 Y150.269 E24.12901
G1 X179.619 Y150.533 E24.16913
G1 X179.592 Y150.735 E24.19999
G1 X179.512 Y151.008 E24.24299
G1 X179.512 Y154.415 E24.75859
G1 X179.183 Y154.743 E24.82890
G1 X173.719 Y154.743 E25.65588
G1 X173.526 Y154.550 E25.69711
G1 X172.927 Y154.808 E25.79577
G1 X172.485 Y150.864 F6000.000
G1 F900
G1 X171.267 Y146.592 E26.46817
G1 X171.189 Y146.517 E26.48440
G1 X168.690 Y142.238 E27.23438
G1 X168.663 Y142.137 E27.25017
G1 X168.548 Y141.995 E27.27787
G1 X168.475 Y141.948 E27.29095
G1 X164.995 Y138.425 E28.04034
G1 X164.944 Y138.336 E28.05582
G1 X160.543 Y135.694 E28.83271
G1 X160.470 Y135.617 E28.84877
G1 X155.606 Y134.166 E29.61688
G1 X155.516 Y134.111 E29.63282
G1 X150.517 Y133.915 E30.38999
G1 X150.416 Y133.883 E30.40599
G1 X145.590 Y134.921 E31.15299
G1 X145.486 Y134.915 E31.16888
G1 X141.133 Y137.086 E31.90493
G1 X141.029 Y137.106 E31.92092
G1 X137.403 Y140.245 E32.64671
G1 X137.308 Y140.291 E32.66268
G1 X134.613 Y144.177 E33.37836
G1 X134.533 Y144.244 E33.39422
G1 X132.912 Y148.611 E34.09922
G1 X132.851 Y148.697 E34.11504
G1 X132.800 Y148.911 E34.14839
G1 X132.817 Y149.015 E34.16432
G1 X132.373 Y153.257 E34.80985
G1 X132.334 Y153.356 E34.82584
G1 X132.339 Y153.579 E34.85960
G1 X132.381 Y153.675 E34.87552
G1 X132.994 Y157.826 E35.51043
G1 X132.981 Y157.931 E35.52645
G1 X133.041 Y158.145 E35.56016
G1 X133.106 Y158.228 E35.57604
G1 X134.705 Y162.035 E36.20100
G1 X134.718 Y162.139 E36.21689
G1 X134.829 Y162.332 E36.25045
G1 X134.913 Y162.396 E36.26639
G1 X137.365 Y165.631 E36.88070
G1 X137.404 Y165.728 E36.89657
G1 X137.559 Y165.886 E36.93012
G1 X137.656 Y165.928 E36.94608
G1 X140.781 Y168.409 E37.54989
G1 X140.843 Y168.493 E37.56577
G1 X141.032 Y168.608 E37.59920
G1 X141.135 Y168.624 E37.61510
G1 X144.716 Y170.223 E38.20855
G1 X144.798 Y170.289 E38.22446
G1 X145.009 Y170.354 E38.25794
G1 X145.114 Y170.343 E38.27385
G1 X149.228 Y171.044 E38.90543
G1 X149.327 Y171.008 E38.92140
G1 X153.415 Y170.670 E39.54221
G1 X153.502 Y170.611 E39.55812
G1 X157.312 Y169.290 E40.16835
G1 X157.381 Y169.211 E40.18414
G1 X160.691 Y167.019 E40.78499
G1 X160.739 Y166.924 E40.80107
G1 X163.348 Y164.034 E41.39020
G1 X163.370 Y163.931 E41.40618
G1 X165.148 Y160.542 E41.98535
G1 X165.144 Y160.436 E42.00131
G1 X166.006 Y156.780 E42.56980
G1 X165.976 Y156.679 E42.58570
G1 X165.902 Y152.991 E43.14398
G1 X165.848 Y152.901 E43.15995
G1 X164.877 Y149.415 E43.70756
G1 X164.802 Y149.340 E43.72354
G1 X163.194 Y146.553 E44.21047
G1 X163.168 Y146.448 E44.22693
G1 X160.728 Y143.956 E44.75473
G1 X160.676 Y143.864 E44.77071
G1 X157.756 Y142.097 E45.28716
G1 X157.684 Y142.021 E45.30309
G1 X154.483 Y141.058 E45.80901
G1 X154.393 Y141.002 E45.82492
G1 X151.123 Y140.871 E46.32017
G1 X151.023 Y140.839 E46.33613
G1 X147.890 Y141.512 E46.82102
G1 X147.785 Y141.506 E46.83702
G1 X144.979 Y142.910 E47.31175
G1 X144.877 Y142.931 E47.32763
G1 X142.565 Y144.943 E47.79142
G1 X142.470 Y144.988 E47.80741
G1 X140.770 Y147.460 E48.26131
G1 X140.690 Y147.528 E48.27719
G1 X139.687 Y150.277 E48.72009
G1 X139.626 Y150.363 E48.73606
G1 X139.348 Y153.212 E49.16919
G1 X139.311 Y153.310 E49.18503
G1 X139.317 Y153.529 E49.21818
G1 X139.361 Y153.625 E49.23414
G1 X139.743 Y156.064 E49.60771
G1 X139.731 Y156.169 E49.62373
G1 X139.793 Y156.381 E49.65716
G1 X139.858 Y156.463 E49.67307
G1 X140.813 Y158.669 E50.03687
G1 X140.828 Y158.773 E50.05274
G1 X140.939 Y158.961 E50.08575
G1 X141.023 Y159.024 E50.10165
G1 X142.457 Y160.866 E50.45502
G1 X142.498 Y160.963 E50.47091
G1 X142.653 Y161.118 E50.50404
G1 X142.750 Y161.158 E50.51998
G1 X144.545 Y162.540 E50.86272
G1 X144.608 Y162.623 E50.87864
G1 X144.798 Y162.734 E50.91187
G1 X144.902 Y162.749 E50.92784
G1 X146.922 Y163.609 E51.26011
G1 X147.005 Y163.675 E51.27605
G1 X147.216 Y163.734 E51.30923
G1 X147.320 Y163.722 E51.32517
G1 X149.425 Y164.038 E51.64718
G1 X149.521 Y164.081 E51.66310
G1 X149.738 Y164.085 E51.69591
G1 X149.835 Y164.048 E51.71172
G1 X151.887 Y163.832 E52.02393
G1 X151.990 Y163.849 E52.03980
G1 X152.203 Y163.799 E52.07282
G1 X152.288 Y163.737 E52.08880
G1 X154.450 Y162.927 E52.43814
G1 X154.517 Y162.846 E52.45409
G1 X156.347 Y161.558 E52.79277
G1 X156.392 Y161.464 E52.80855
G1 X157.798 Y159.804 E53.13773
G1 X157.817 Y159.701 E53.15368
G1 X158.729 Y157.805 E53.47196
G1 X158.721 Y157.700 E53.48787
G1 X159.111 Y155.703 E53.79586
G1 X159.077 Y155.603 E53.81176
G1 X158.953 Y153.640 E54.10951
G1 X158.895 Y153.552 E54.12543
G1 X158.299 Y151.749 E54.41283
G1 X158.221 Y151.679 E54.42874
G1 X157.224 Y150.143 E54.70590
G1 X157.130 Y150.095 E54.72183
G1 X155.824 Y148.908 E54.98881
G1 X155.721 Y148.886 E55.00480
G1 X154.219 Y148.105 E55.26105
G1 X154.114 Y148.109 E55.27690
G1 X152.525 Y147.752 E55.52337
G1 X152.425 Y147.783 E55.53922
G1 X151.112 Y147.834 E55.73813
G1 X150.006 Y147.621 E55.90851
G1 X149.896 Y147.621 E55.92523
G1 X147.874 Y148.024 E56.23718
G1 X147.772 Y148.066 E56.25390
G1 X146.058 Y149.211 E56.56585
G1 X145.980 Y149.289 E56.58257
G1 X144.835 Y151.003 E56.89453
G1 X144.792 Y151.105 E56.91125
G1 X144.390 Y153.127 E57.22320
G1 X144.390 Y153.237 E57.23992
G1 X144.792 Y155.259 E57.55188
G1 X144.835 Y155.361 E57.56859
G1 X145.980 Y157.075 E57.88055
G1 X146.058 Y157.153 E57.89727
G1 X147.772 Y158.299 E58.20922
G1 X147.874 Y158.341 E58.22594
G1 X149.896 Y158.743 E58.53790
G1 X150.006 Y158.743 E58.55462
G1 X152.028 Y158.341 E58.86657
G1 X152.130 Y158.299 E58.88329
G1 X153.844 Y157.153 E59.19524
G1 X153.922 Y157.075 E59.21196
G1 X155.067 Y155.361 E59.52392
G1 X155.110 Y155.259 E59.54064
G1 X155.595 Y152.820 E59.91708
G1 X156.402 Y152.770 E60.03951
G1 X156.862 Y154.188 E60.26515
G1 X156.949 Y155.704 E60.49490
G1 X156.637 Y157.260 E60.73512
G1 X155.911 Y158.749 E60.98580
G1 X154.789 Y160.060 E61.24694
G1 X153.316 Y161.086 E61.51854
G1 X151.568 Y161.732 E61.80061
G1 X149.645 Y161.926 E62.09316
G1 X147.666 Y161.620 E62.39616
G1 X145.764 Y160.800 E62.70965
G1 X144.073 Y159.488 E63.03359
G1 X142.756 Y157.796 E63.35803
G1 X141.825 Y155.644 E63.71292
G1 X141.469 Y153.322 E64.06828
G1 X141.712 Y150.917 E64.43414
G1 X142.542 Y148.643 E64.80050
G1 X143.983 Y146.532 E65.18731
G1 X145.958 Y144.802 E65.58461
G1 X148.426 Y143.567 E66.00232
G1 X151.130 Y142.994 E66.42056
G1 X153.960 Y143.116 E66.84929
G1 X156.737 Y143.960 E67.28851
G1 X159.276 Y145.506 E67.73820
G1 X161.397 Y147.684 E68.19840
G1 X162.918 Y150.321 E68.65913
G1 X163.779 Y153.382 E69.14029
G1 X163.849 Y156.422 E69.60040
G1 X163.896 Y156.482 E69.61201
G1 X163.099 Y159.861 E70.13747
G1 X161.496 Y162.919 E70.66001
G1 X159.173 Y165.479 E71.18312
G1 X156.288 Y167.390 E71.70680
G1 X152.894 Y168.576 E72.25090
G1 X149.243 Y168.886 E72.80547
G1 X145.497 Y168.248 E73.38045
G1 X142.028 Y166.690 E73.95602
G1 X139.000 Y164.275 E74.54207
G1 X136.625 Y161.129 E75.13863
G1 X135.080 Y157.427 E75.74567
G1 X134.492 Y153.389 E76.36320
G1 X134.933 Y149.263 E76.99124
G1 X136.409 Y145.310 E77.62976
G1 X138.860 Y141.791 E78.27878
G1 X142.160 Y138.945 E78.93829
G1 X146.126 Y136.976 E79.60831
G1 X150.524 Y136.039 E80.28881
G1 X155.086 Y136.225 E80.97982
G1 X159.526 Y137.558 E81.68132
G1 X163.555 Y139.987 E82.39332
G1 X166.905 Y143.389 E83.11582
G1 X169.341 Y147.575 E83.84881
G1 X170.681 Y152.302 E84.59231
G1 X170.808 Y157.283 E85.34629
G1 X169.680 Y162.207 E86.11078
G1 X167.335 Y166.759 E86.88577
G1 X163.887 Y170.639 E87.67126
G1 X159.528 Y173.582 E88.46724
G1 X154.510 Y175.375 E89.27373
G1 X149.200 Y175.877 E90.08081
G1 X143.798 Y175.033 E90.90830
G1 X138.709 Y172.848 E91.74628
G1 X134.220 Y169.381 E92.60466
G1 X130.735 Y164.901 E93.46366
G1 X128.459 Y159.697 E94.32324
G1 X127.516 Y153.959 E95.20324
G1 X128.030 Y148.097 E96.09372
G1 X130.005 Y142.481 E96.99472
G1 X133.392 Y137.421 E97.91609
G1 X137.936 Y133.363 E98.83809
G1 X143.343 Y130.548 E99.76070
G1 X149.475 Y129.116 E100.71358
G1 X155.774 Y129.256 E101.66708
G1 X161.848 Y130.946 E102.62119
G1 X167.487 Y134.189 E103.60559
G1 X172.143 Y138.736 E104.59060
G1 X175.537 Y144.295 E105.57622
G1 X176.742 Y148.196 E106.19401
G1 X176.428 Y148.621 E106.27416
G1 X173.719 Y148.621 E106.68414
G1 X173.390 Y148.950 E106.75445
G1 X173.390 Y150.738 E107.02504
G1 X172.545 Y150.856 E107.15418
G1 E106.65418 F2400.00000
G92 E0
G1 X178.551 Y153.782 F6000.000
G1 E0.50000 F2400.00000
G1 F540
G1 X174.351 Y153.782 E0.95392
G1 X174.351 Y149.582 E1.40784
G1 X178.551 Y149.582 E1.86176
G1 X178.551 Y150.132 E1.92118
G1 X178.661 Y150.490 E1.96164
G1 X178.551 Y150.701 E1.98731
G1 X178.551 Y153.722 E2.31388
G1 X178.207 Y153.578 F6000.000
G1 X177.837 Y153.068 F6000.000
G1 F540
G1 X175.065 Y153.068 E2.61343
G1 X175.065 Y150.296 E2.91299
G1 X177.837 Y150.296 E3.21254
G1 X177.837 Y153.008 E3.50561
G1 X178.155 Y149.182 F6000.000
G1 F540
G1 X176.517 Y143.865 E4.27539
G1 X172.943 Y138.023 E5.22284
G1 X168.081 Y133.298 E6.16087
G1 X162.262 Y129.961 E7.08880
G1 X155.924 Y128.197 E7.99899
G1 X149.603 Y128.057 E8.87374
G1 X149.279 Y128.063 E8.91859
G1 X143.022 Y129.526 E9.80762
G1 X137.336 Y132.479 E10.69393
G1 X132.589 Y136.716 E11.57435
G1 X129.068 Y141.961 E12.44827
G1 X126.999 Y147.808 E13.30637
G1 X126.445 Y153.938 E14.15799
G1 X127.416 Y159.938 E14.99886
G1 X129.829 Y165.471 E15.83397
G1 X133.488 Y170.162 E16.65704
G1 X138.112 Y173.737 E17.46562
G1 X143.411 Y176.027 E18.26426
G1 X143.530 Y176.063 E18.28148
G1 X149.149 Y176.945 E19.06839
G1 X154.802 Y176.406 E19.85409
G1 X160.096 Y174.489 E20.63295
G1 X164.644 Y171.397 E21.39389
G1 X168.258 Y167.301 E22.14958
G1 X170.710 Y162.499 E22.89554
G1 X171.878 Y157.305 E23.63205
G1 X171.729 Y152.081 E24.35505
G1 X170.323 Y147.153 E25.06403
G1 X167.752 Y142.737 E25.77103
G1 X164.213 Y139.144 E26.46874
G1 X159.950 Y136.576 E27.15722
G1 X155.290 Y135.179 E27.83039
G1 X155.166 Y135.165 E27.84761
G1 X150.443 Y134.974 E28.50161
G1 X145.801 Y135.961 E29.15811
G1 X145.685 Y136.006 E29.17535
G1 X141.594 Y138.042 E29.80760
G1 X141.493 Y138.114 E29.82484
G1 X138.064 Y141.077 E30.45173
G1 X135.459 Y144.819 E31.08251
G1 X133.888 Y149.036 E31.70512
G1 X133.428 Y153.382 E32.30977
G1 X133.431 Y153.507 E32.32702
G1 X134.047 Y157.685 E32.91129
G1 X134.081 Y157.805 E32.92854
G1 X135.715 Y161.692 E33.51193
G1 X138.262 Y165.050 E34.09505
G1 X141.451 Y167.583 E34.65848
G1 X141.557 Y167.649 E34.67574
G1 X145.234 Y169.285 E35.23248
G1 X149.193 Y169.954 E35.78798
G1 X153.143 Y169.612 E36.33656
G1 X156.765 Y168.347 E36.86736
G1 X159.846 Y166.306 E37.37860
G1 X159.941 Y166.224 E37.39594
G1 X162.415 Y163.467 E37.90852
G1 X164.105 Y160.220 E38.41487
G1 X164.915 Y156.751 E38.90774
G1 X164.846 Y153.289 E39.38685
G1 X163.929 Y149.967 E39.86367
G1 X162.248 Y147.036 E40.33111
G1 X159.935 Y144.664 E40.78943
G1 X157.164 Y142.979 E41.23815
G1 X154.152 Y142.066 E41.67350
G1 X151.049 Y141.929 E42.10328
G1 X148.078 Y142.557 E42.52334
G1 X145.445 Y143.863 E42.93001
G1 X145.343 Y143.937 E42.94735
G1 X143.229 Y145.771 E43.33457
G1 X141.639 Y148.069 E43.72122
G1 X141.585 Y148.182 E43.73858
G1 X140.668 Y150.686 E44.10752
G1 X140.404 Y153.324 E44.47421
G1 X140.410 Y153.449 E44.49158
G1 X140.794 Y155.911 E44.83632
G1 X140.830 Y156.031 E44.85370
G1 X141.792 Y158.255 E45.18889
G1 X141.856 Y158.363 E45.20628
G1 X143.341 Y160.269 E45.54053
G1 X145.279 Y161.755 E45.87841
G1 X147.413 Y162.660 E46.19903
G1 X149.665 Y162.996 E46.51407
G1 X151.861 Y162.762 E46.81959
G1 X153.853 Y162.014 E47.11400
G1 X155.556 Y160.808 E47.40276
G1 X156.843 Y159.277 E47.67941
G1 X157.673 Y157.533 E47.94668
G1 X158.011 Y155.803 E48.19049
G1 X158.019 Y155.676 E48.20813
G1 X157.890 Y153.890 E48.45583
G1 X157.347 Y152.282 E48.69064
G1 X156.437 Y150.899 E48.91966
G1 X155.256 Y149.840 E49.13918
G1 X153.902 Y149.149 E49.34949
G1 X153.021 Y148.951 E49.47436
G1 X154.543 Y153.182 F6000.000
G1 F540
G1 X154.193 Y154.940 E49.66801
G1 X153.198 Y156.429 E49.86165
G1 X151.708 Y157.425 E50.05530
G1 X149.951 Y157.774 E50.24895
G1 X148.194 Y157.425 E50.44260
G1 X146.704 Y156.429 E50.63624
G1 X145.708 Y154.940 E50.82989
G1 X145.359 Y153.182 E51.02354
G1 X145.708 Y151.425 E51.21719
G1 X146.704 Y149.935 E51.41083
G1 X148.194 Y148.940 E51.60448
G1 X149.951 Y148.590 E51.79813
G1 X151.039 Y148.806 E51.91799
G1 X152.404 Y148.746 E52.06566
G1 X154.193 Y151.425 E52.41384
G1 X154.531 Y153.123 E52.60100
G1 X154.543 Y153.182 F6000.000
G1 X153.913 Y153.182 F6000.000
G1 F540
G1 X151.932 Y156.613 E53.02919
G1 X147.970 Y156.613 E53.45737
G1 X145.989 Y153.182 E53.88556
G1 X147.970 Y149.751 E54.31374
G1 X151.932 Y149.751 E54.74193
G1 X153.883 Y153.130 E55.16363
G1 X154.259 Y153.382 F6000.000
G1 X154.015 Y152.565 F6000.000
G1 F360
G1 X153.916 Y152.302 E55.16592
G1 F360
G1 X153.817 Y152.038 E55.17194
G1 F360
G1 X153.718 Y151.774 E55.18167
G1 F360
G1 X153.668 Y151.643 E55.18840
G1 X152.951 Y150.490 E55.25323
G1 F360
G1 X152.235 Y149.338 E55.29982
G1 F360
G1 X152.146 Y149.255 E55.30288
G1 X151.016 Y149.280 E55.33122
G1 X150.781 Y149.258 E55.33714
G1 F360
G1 X150.366 Y149.217 E55.35148
G1 F360
G1 X149.951 Y149.176 E55.37098
G1 X149.268 Y149.244 E55.40308
G1 F360
G1 X148.812 Y149.288 E55.41799
G1 F360
G1 X148.357 Y149.333 E55.42668
G1 F360
